!!!!SEGMENT: pl-sa--193-a-v-23--003_pausch-eugen--missa-in-c-credo.krn
!!!id: 17xx:638
!!!COM: Pausch, Eugen
!!!COM-rism: pe30002453
!!!CDT:
!!!CNT:
!!!OTL: Missa in C – Credo
!!!PDT:
!!!SMS-siglum: PL-SA
!!!SMS-shelfmark: 193/A V 23
!!!SMS-variant:
!!!SMS-altvar:
!!!NIFC-rismID: 1001036465
!!!system-decoration: [(s1,s2)][(s3,s4)][(s5,s6)][(s7,s8)]s9
**kern	**fba	**dynam	**kern	**dynam	**kern	**dynam	**kern	**text	**kern	**text	**kern	**kern	**kern	**kern
*part9	*part9	*part9	*part8	*part8	*part7	*part7	*part6	*part6	*part5	*part5	*part4	*part3	*part2	*part1
*staff9	*staff9	*staff9	*staff8	*	*staff7	*	*staff6	*staff6	*staff5	*staff5	*staff4	*staff3	*staff2	*staff1
*I"Organo	*	*	*I"Violino 2do	*	*I"Violino 1mo	*	*I"Basso	*	*I"Canto	*	*I"Corno Secundo in C	*I"Corno Primo in C	*I"Clarinitto vel Oboe 2do: in C	*I"Clarinetto vel Oboe 1. in C
*I'Org.	*	*	*I'V-no II	*	*I'V-no I	*	*I'B.	*	*I'C.	*	*I'C. II	*I'C. I	*I'Cl. v Ob. II	*I'Cl. v Ob. I
*clefF4	*	*	*clefG2	*	*clefG2	*	*clefF4	*	*clefC1	*	*clefG2	*clefG2	*clefG2	*clefG2
*Trd0c0	*	*	*	*	*	*	*	*	*	*	*Trd0c0	*Trd0c0	*	*
*k[]	*	*	*k[]	*	*k[]	*	*k[]	*	*k[]	*	*k[]	*k[]	*k[]	*k[]
*M2/4	*	*	*M2/4	*	*M2/4	*	*M2/4	*	*M2/4	*	*M2/4	*M2/4	*M2/4	*M2/4
=1	=1	=1	=1	=1	=1	=1	=1	=1	=1	=1	=1	=1	=1	=1
*2\right	*	*	*	*	*2\right	*	*2\right	*	*2\right	*	*	*2\right	*2\right	*2\right
!LO:TX:a:i:t=moderatto	!	!	!O:TX:a:i:t=Allo&colon;	!	!LO:TX:a:i:t=Allo&colon;	!	!	!	!LO:TX:a:i:t=mode&colon;	!	!	!LO:TX:a:i:t=moderatto	!LO:TX:a:i:t=Allo&colon;	!LO:TX:a:i:t=Allo
!	!	!	!	!	!	!	!	!	!	!	!LO:TX:a:t=P:problem:pominięty fragment; brak partii Corno II	!	!	!
!	!	!	!	!	!LO:SIC:o=Credo&colon;:v:t=w źródle napis ten znajduje się przed kluczem i oznaczeniem metrum	!	!	!	!	!	!	!	!	!
!	!	!	!LO:SIC:o=Credo&colon;:v:t=w źródle napis ten znajduje się przed kluczem i oznaczeniem metrum	!	!	!	!	!	!	!	!	!	!	!
!LO:SIC:o=Credo&colon;:v:t=w źródle napis ten znajduje się przed kluczem i oznaczeniem metrum	!	!	!	!	!	!	!	!	!	!	!	!	!	!
!	!	!	!	!	!	!	!	!	!	!	!	!LO:SIC:o=Credo:v:t=w źródle napis ten znajduje się przed kluczem i oznaczeniem metrum	!	!
!	!	!	!	!	!	!	!	!	!	!	!	!	!LO:SIC:o=Credo:v:t=w źródle napis ten znajduje się przed kluczem i oznaczeniem metrum	!
!	!	!	!	!	!	!	!	!	!	!	!	!	!	!LO:SIC:o=Credo:v:t=w źródle napis ten znajduje się przed kluczem i oznaczeniem metrum
!	!	!	!	!	!	!	!LO:SIC:o=C:v:t=w źródle 'C' znajduje się przed kluczem i oznaczeniem metrum	!	!	!	!	!	!	!
!	!	!	!	!	!	!	!	!	!LO:SIC:o=C:v:t=w źródle 'C' znajduje się przed kluczem i oznaczeniem metrum	!	!	!	!	!
8r	.	.	4cc\	.	4cc\	.	4c\	Cre-	4cc\	Cre-	2ryy	4cc\	4e/	4cc\
8C/L	.	.	.	.	.	.	.	.	.	.	.	.	.	.
8BB/	3 6	.	4dd\	.	4dd\	.	4G\	-do	4dd\	-do	.	4dd\	4g/	4dd\
8GG/J	.	.	.	.	.	.	.	.	.	.	.	.	.	.
=2	=2	=2	=2	=2	=2	=2	=2	=2	=2	=2	=2	=2	=2	=2
4C/	3 8	.	8r	.	8r	.	8r	.	8r	.	2ryy	4ee\	4g/	4ee\
.	.	.	8ee\	.	8ee\	.	8c\	in	8ee\	in	.	.	.	.
.	.	.	8qqgg/	.	8qqgg/	.	.	.	.	.	.	.	.	.
8r	.	.	8ff\L	.	8ff\L	.	8G\	u-	8ff\	u-	.	8r	8dd\L	8ff\L
!	!	!	!	!	!	!	!LO:SIC:s=-num:v	!	!	!	!	!LO:SIC:s=8ee:v	!	!
8GG/	7	.	16ee\L	.	16ee\L	.	8G\	-nu	16ee\LL	-num	.	8dd\	8g\J	16ee\L
.	.	.	16dd\JJ	.	16dd\JJ	.	.	.	16dd\JJ	.	.	.	.	16dd\JJ
=3	=3	=3	=3	=3	=3	=3	=3	=3	=3	=3	=3	=3	=3	=3
8C/L	.	.	4cc\	.	4cc\	.	4c\	De-	4cc\	De-	2ryy	4cc\	4e/	4cc\
8C/	.	.	.	.	.	.	.	.	.	.	.	.	.	.
8BB/	6	.	4dd\	.	4dd\	.	4G\	-um	4dd\	-um	.	4dd\	4g/	4dd\
8GG/J	.	.	.	.	.	.	.	.	.	.	.	.	.	.
=4	=4	=4	=4	=4	=4	=4	=4	=4	=4	=4	=4	=4	=4	=4
4C/	.	.	8r	.	8r	.	8r	.	8r	.	2ryy	4ee\	4g/	4ee\
.	.	.	8ee\	.	8ee\	.	8c\	Pa-	8ee\	Pa-	.	.	.	.
.	.	.	8qqgg/	.	8qqgg/	.	.	.	.	.	.	.	.	.
8r	.	.	8ff\L	.	8ff\L	.	8G\	-trem	8ff\	-trem	.	8r	8dd\L	8ff\L
!	!	!	!	!	!	!	!	!	!	!	!	!LO:SIC:s=8ee:v	!	!
8C/	.	.	16ee\L	.	16ee\L	.	8G\	o-	16ee\LL	o-	.	8dd\	8g\J	16ee\L
.	.	.	16dd\JJ	.	16dd\JJ	.	.	.	16dd\JJ	.	.	.	.	16ff\JJ
=5	=5	=5	=5	=5	=5	=5	=5	=5	=5	=5	=5	=5	=5	=5
*tremolo	*	*	*	*	*	*	*	*	*	*	*	*	*	*
8C/L	5 3	.	4cc\	.	4cc\	.	8c\	-mni-	8cc\	-mni-	2ryy	4cc\	2ee\	2gg\
8C/	.	.	.	.	.	.	8c\	-po-	8cc\	-po-	.	.	.	.
8C/	.	.	8ee\L	.	8ee\L	.	8C/	-ten-	8ee\	-ten-	.	4r	.	.
!	!	!	!	!	!	!	!	!	!LO:SIC:s=-tem:v	!	!	!	!	!
8C/J	.	.	8gg\J	.	8gg\J	.	16C/	-tem	16ee\	-tem	.	.	.	.
.	.	.	.	.	.	.	16C/	fac-	16ee\	fac-	.	.	.	.
=6	=6	=6	=6	=6	=6	=6	=6	=6	=6	=6	=6	=6	=6	=6
8C/L	6 4	.	4cc\	.	4cc\	.	8C/	-to-	8ff\	-to-	2ryy	4cc\	2ff\	2aa\
8C/	.	.	.	.	.	.	8C/	-rem	8ff\	-rem	.	.	.	.
8C/	.	.	8ff\L	.	8ff\L	.	8BB/	Cae-	8ff\	Cae-	.	4r	.	.
!	!	!	!	!	!	!	!	!	!LO:LB:g=original	!	!	!	!	!
8C/J	.	.	8aa\J	.	8aa\J	.	16C/	-li	16ff\	-li	.	.	.	.
!	!	!	!	!	!	!	!LO:TX:a:t=P:skreślony tekst; pomyłka skryptora:problem	!	!	!	!	!	!	!
.	.	.	.	.	.	.	16C/	et	16ff\	et	.	.	.	.
=7	=7	=7	=7	=7	=7	=7	=7	=7	=7	=7	=7	=7	=7	=7
8C/L	5 3	.	4cc\	.	4cc\	.	8C/	ter-	8ee\	ter-	2ryy	4cc\	2ee\	2gg\
!	!	!	!	!	!	!	!LO:SIC:s=-rae:v	!	!LO:SIC:s=-rae:v	!	!	!	!	!
8C/	.	.	.	.	.	.	8C/	-re	8ee\	-re	.	.	.	.
!	!	!	!	!	!	!	!LO:LB:g=original	!	!	!	!	!	!	!
8C/	.	.	8ee\L	.	8ee\L	.	8C/	vi-	8ee\	vi-	.	4r	.	.
8C/J	.	.	8gg\J	.	8gg\J	.	8C/	-ſi-	8ee\	-ſi-	.	.	.	.
*Xtremolo	*	*	*	*	*	*	*	*	*	*	*	*	*	*
=8	=8	=8	=8	=8	=8	=8	=8	=8	=8	=8	=8	=8	=8	=8
8C/L	4 2	.	8ff\L	.	8ff\L	.	8C/	-bi-	8dd\	-bi-	2ryy	2dd\	2dd\	2ff\
8C/	.	.	16ddd\L	.	16ddd\L	.	16C/	-li-	16dd\	-li-	.	.	.	.
.	.	.	16ccc\JJ	.	16ccc\JJ	.	16C/	-um	16dd\	-um	.	.	.	.
8BB/	6 5	.	16bb\LL	.	16bb\LL	.	16BB/	om-	8dd\	Om-	.	.	.	.
.	.	.	16aa\	.	16aa\	.	16BB/	-ni-	.	.	.	.	.	.
8BB/J	.	.	16gg\	.	16gg\	.	8BB/	-um	16dd\	-ni-	.	.	.	.
.	.	.	16ff\JJ	.	16ff\JJ	.	.	.	16dd\	-um	.	.	.	.
!	!	!	!LO:LB:g=original	!	!	!	!	!	!	!	!	!	!	!
=9	=9	=9	=9	=9	=9	=9	=9	=9	=9	=9	=9	=9	=9	=9
*tremolo	*	*	*	*	*	*	*	*	*	*	*	*	*	*
!	!	!	!	!	!	!	!	!	!	!	!	!	!LO:TX:a:t=P:znak początku repetycji:problem	!
8C/L	.	.	4ee\	.	4ee\	.	4C/	et	4cc\	et	2ryy	2ee\	4cc\	4ee\
8C/	.	.	.	.	.	.	.	.	.	.	.	.	.	.
!	!	!	!	!	!	!	!	!	!	!	!	!	!LO:TX:a:i:t=bis	!
8C/	.	.	16gg\LL	.	16gg\LL	.	4c\	in-	4ee\	in-	.	.	4r	4gg\
.	.	.	16ee\	.	16ee\	.	.	.	.	.	.	.	.	.
8C/J	.	.	16ee\	.	16ee\	.	.	.	.	.	.	.	.	.
.	.	.	16cc\JJ	.	16cc\JJ	.	.	.	.	.	.	.	.	.
!	!	!	!	!	!	!	!	!	!	!	!	!	!LO:TX:a:t=P:znak końca repetycji:problem	!
!	!	!	!	!	!LO:LB:g=original	!	!	!	!	!	!	!	!	!
=10	=10	=10	=10	=10	=10	=10	=10	=10	=10	=10	=10	=10	=10	=10
*	*	*	*	*	*	*	*	*	*	*	*	*	*rep	*
!	!	!	!	!	!	!	!	!	!	!	!	!	!LO:TX:a:t=P:powtórzenie taktu oznaczone znakami repetycji:problem	!
8BB/L	6	.	4dd\	.	4dd\	.	4B\	-vi-	4gg\	-vi-	2ryy	2dd\	4cc\	2gg\
8BB/	.	.	.	.	.	.	.	.	.	.	.	.	.	.
8BB/	.	.	16gg\LL	.	16gg\LL	.	4B\	-ſi-	4gg\	-ſi-	.	.	4r	.
.	.	.	16dd\	.	16dd\	.	.	.	.	.	.	.	.	.
8BB/J	.	.	16dd\	.	16dd\	.	.	.	.	.	.	.	.	.
.	.	.	16b\JJ	.	16b\JJ	.	.	.	.	.	.	.	.	.
*	*	*	*	*	*	*	*	*	*	*	*	*	*Xrep	*
*Xtremolo	*	*	*	*	*	*	*	*	*	*	*	*	*	*
!LO:LB:g=original	!	!	!	!	!	!	!	!	!	!	!	!	!	!
=11	=11	=11	=11	=11	=11	=11	=11	=11	=11	=11	=11	=11	=11	=11
8AA/L	7	.	4cc\	.	4cc\	.	4A\	-bi-	4gg\	-bi-	2ryy	2dd\	4r	4gg\
8AA/	.	.	.	.	.	.	.	.	.	.	.	.	.	.
8D/	7 #n	.	16aa\LL	.	16aa\LL	.	4D\	-li-	4ff#X\	-li-	.	.	8r	4ff#X\
.	.	.	16ff#X\	.	16ff#X\	.	.	.	.	.	.	.	.	.
8D/J	.	.	16ff#\	.	16ff#\	.	.	.	.	.	.	.	8a/	.
.	.	.	16cc\JJ	.	16cc\JJ	.	.	.	.	.	.	.	.	.
=12	=12	=12	=12	=12	=12	=12	=12	=12	=12	=12	=12	=12	=12	=12
!	!	!	!	!	!	!LO:DY:b:t=p.	!	!	!	!	!	!	!	!
4GG/	.	.	8b\	.	8b\L	p	8G\L	-um	8gg\	-um	2ryy	4dd\	4b\	4gg\
.	.	.	8b\L	.	8dd\	.	8B\J	.	8dd\L	et	.	.	.	.
4r	.	.	8cc\	.	8ee\	.	8c\	et	8ee\J	.	.	4r	4r	4r
.	.	.	8b\J	.	8dd\J	.	8B\	in	8dd\	in	.	.	.	.
!	!	!	!	!	!	!	!	!	!LO:LB:g=original	!	!	!	!	!
=13	=13	=13	=13	=13	=13	=13	=13	=13	=13	=13	=13	=13	=13	=13
!	!	!	!	!	!	!	!	!	!	!	!	!	!LO:TX:a:t=P:problem:pominięty fragment	!LO:TX:a:t=P:problem:pominięty fragment
4r	.	.	8a/	.	8cc/	.	4A\	u-	4cc\	u-	2ryy	4r	2ryy	2ryy
.	.	.	4f#X/	.	4a/	.	.	.	.	.	.	.	.	.
!	!	!	!	!	!	!	!LO:TX:a:t=P:takt wykreślony; pomyłka skryptora:problem	!	!	!	!	!	!	!
8r	.	.	.	.	.	.	4F#X\	-num	4a\	-num	.	8r	.	.
!	!	!	!	!	!	!LO:DY:b:t=f.	!	!	!	!	!	!	!	!
8D\	#7	.	8a 8d/	.	8ff#X 8a 8d/	f	.	.	.	.	.	8dd\	.	.
!	!	!	!	!	!	!	!LO:LB:g=original	!	!	!	!	!LO:LB:g=original	!	!
=14	=14	=14	=14	=14	=14	=14	=14	=14	=14	=14	=14	=14	=14	=14
4G\	.	.	8b 8d 8G/	.	8gg 8b 8d/	.	8r	.	8r	.	2ryy	4dd\	2ryy	2ryy
!	!	!	!	!	!	!LO:DY:b	!	!	!	!	!	!	!	!
.	.	.	8b\L	.	8dd\L	p	8B\	in	8dd\	in	.	.	.	.
4r	.	.	8cc\	.	8ee\	.	8c\	u-	8ee\	u-	.	4r	.	.
.	.	.	8b\J	.	8dd\J	.	8B\	-num	8dd\	-num	.	.	.	.
=15	=15	=15	=15	=15	=15	=15	=15	=15	=15	=15	=15	=15	=15	=15
4r	.	.	8a/	.	8cc\	.	8.A\	Do-	8.cc\	Do-	2ryy	4r	4r	4r
.	.	.	4f#X/	.	4a/	.	.	.	.	.	.	.	.	.
.	.	.	.	.	.	.	16A\	-mi-	16cc\	-mi-	.	.	.	.
8r	.	.	.	.	.	.	4F#X\	-num	4a\	-num	.	8r	8r	8r
!	!	!	!LO:TX:a:t=P:w źródle 2 następne takty skreślone; pomyłka skryptora:problem	!	!	!	!	!	!	!	!	!	!	!
!	!	!	!	!	!	!LO:DY:b	!	!	!	!	!	!	!	!
8D\	#7	.	8a 8d/	.	8ff#X 8a 8d/	f	.	.	.	.	.	8dd\	8a/	8ff#X\
!	!	!	!LO:LB:g=original	!	!	!	!	!	!	!	!	!	!	!LO:LB:g=original
=16	=16	=16	=16	=16	=16	=16	=16	=16	=16	=16	=16	=16	=16	=16
4G\	.	.	8b\L	.	8gg 8b 8d/	.	8r	.	8r	.	2ryy	4dd\	8b\L	8gg\L
!	!	!	!	!	!	!LO:DY:b:t=p.	!	!	!	!	!	!	!	!
.	.	.	8b\	.	8dd\L	p	8B\L	Je-	8dd\L	Je-	.	.	8b\	8dd\
4r	.	.	8cc\	.	8ee\	.	8c\J	.	8ee\J	.	.	4r	8cc\	8ee\
!	!	!	!LO:SIC:s=8a:v	!	!	!	!	!	!	!	!	!	!	!
.	.	.	8b\J	.	8dd\J	.	8A\	-sum	8dd\	-sum	.	.	8a\J	8dd\J
!	!	!	!	!	!	!	!	!	!	!	!	!	!LO:LB:g=original	!
=17	=17	=17	=17	=17	=17	=17	=17	=17	=17	=17	=17	=17	=17	=17
!	!	!	!	!	!	!	!	!	!	!	!	!LO:TX:a:t=1.	!	!
!	!	!	!	!	!	!	!	!	!LO:SIC:s=Chris-:v	!	!	!	!	!
4r	.	.	8ee\L	.	8gg\L	.	8B\L	Chri-	8gg\L	Ch-	2ryy	2r	8b\L	8gg\L
.	.	.	8dd\	.	8ffn\	.	8d\J	.	8ffn\J	.	.	.	8dd\	8ffn\
8r	.	.	8cc\	.	8ee\	.	8c\L	-stum	8ee\L	-tum	.	.	8cc\	8ee\
8G\	7	.	8b\J	.	8dd\J	.	8B\J	.	8dd\J	.	.	.	8b\J	8dd\J
=18	=18	=18	=18	=18	=18	=18	=18	=18	=18	=18	=18	=18	=18	=18
*tremolo	*	*	*	*	*tremolo	*	*	*	*	*	*	*	*	*
!	!	!	!	!LO:DY:b:t=for:rj	!	!	!	!	!	!	!	!	!	!
8C/L	.	.	16cc\LL	f	16ee\LL	.	4c\	fi-	4ee\	fi-	2ryy	2ee\	2g/	2ee\
.	.	.	16g\	.	16ee\	.	.	.	.	.	.	.	.	.
8C/	.	.	16g\	.	16ee\	.	.	.	.	.	.	.	.	.
.	.	.	16g\JJ	.	16ee\	.	.	.	.	.	.	.	.	.
*	*	*	*tremolo	*	*	*	*	*	*	*	*	*	*	*
8C/	.	.	16g/LL	.	16ee\	.	8G\	-li-	8ee\	-li-	.	.	.	.
.	.	.	16g/	.	16ee\	.	.	.	.	.	.	.	.	.
8C/J	.	.	16g/	.	16ee\	.	8G\	-um	8ee\	-um	.	.	.	.
.	.	.	16g/JJ	.	16ee\JJ	.	.	.	.	.	.	.	.	.
=19	=19	=19	=19	=19	=19	=19	=19	=19	=19	=19	=19	=19	=19	=19
8C/L	4 2	.	16a 16d/LL	.	16ff#X 16a\LL	.	4A\	De-	4ff#X\	De-	2ryy	2dd\	2a/	2ff#X\
.	.	.	16a 16d/	.	16ff#X 16a\	.	.	.	.	.	.	.	.	.
8C/	.	.	16a 16d/	.	16ff#X 16a\	.	.	.	.	.	.	.	.	.
.	.	.	16a 16d/	.	16ff#X 16a\	.	.	.	.	.	.	.	.	.
8C/	.	.	16a 16d/	.	16ff#X 16a\	.	4A\	-i	4ff#\	-i	.	.	.	.
.	.	.	16a 16d/	.	16ff#X 16a\	.	.	.	.	.	.	.	.	.
8C/J	.	.	16a 16d/	.	16ff#X 16a\	.	.	.	.	.	.	.	.	.
.	.	.	16a 16d/JJ	.	16ff#X 16a\JJ	.	.	.	.	.	.	.	.	.
*Xtremolo	*	*	*	*	*Xtremolo	*	*	*	*	*	*	*	*	*
=20	=20	=20	=20	=20	=20	=20	=20	=20	=20	=20	=20	=20	=20	=20
!	!	!	!	!	!LO:TX:a:t=P:mixed beam:problem	!	!	!	!	!	!	!	!	!
8BB/L	6	.	16f/LL	.	8gg\L	.	4B\	u-	4gg\	u-	2ryy	4dd\	4dd\	4gg\
.	.	.	16f/	.	.	.	.	.	.	.	.	.	.	.
8BB/	.	.	16f/	.	8dd\	.	.	.	.	.	.	.	.	.
.	.	.	16f/	.	.	.	.	.	.	.	.	.	.	.
8C/	5	.	16f/	.	8ee\	.	4c\	-ni	4ee\	-ni	.	4ee\	4ee\	4gg\
.	.	.	16f/	.	.	.	.	.	.	.	.	.	.	.
8C/J	.	.	16f/	.	8e/J	.	.	.	.	.	.	.	.	.
.	.	.	16f/JJ	.	.	.	.	.	.	.	.	.	.	.
!	!	!	!	!	!	!	!	!	!LO:LB:g=original	!	!	!	!	!
=21	=21	=21	=21	=21	=21	=21	=21	=21	=21	=21	=21	=21	=21	=21
8D\L	6 4	.	16g/LL	.	4d/	.	4d\	ge-	4b\	ge-	2ryy	2dd\	4b\	4gg\
.	.	.	16g/	.	.	.	.	.	.	.	.	.	.	.
8D\	.	.	16g/	.	.	.	.	.	.	.	.	.	.	.
.	.	.	16g/JJ	.	.	.	.	.	.	.	.	.	.	.
8D\	5 3	.	16f#X/LL	.	4aT>/	.	4D\	-ni-	4a\	-ni-	.	.	4a\	4ff#X\
.	.	.	16f#X/	.	.	.	.	.	.	.	.	.	.	.
8D\J	.	.	16f#X/	.	.	.	.	.	.	.	.	.	.	.
.	.	.	16f#X/JJ	.	.	.	.	.	.	.	.	.	.	.
*	*	*	*Xtremolo	*	*	*	*	*	*	*	*	*	*	*
!LO:LB:g=original	!	!	!	!	!LO:LB:g=original	!	!	!	!	!	!	!	!	!
=22	=22	=22	=22	=22	=22	=22	=22	=22	=22	=22	=22	=22	=22	=22
4GG/	.	.	8g/	.	8g/	.	4G\	-tum	4g\	-tum	2ryy	4dd\	8b\L	8gg\L
.	.	.	8b\L	.	8dd\L	.	.	.	.	.	.	.	8b\	8dd\
4r	.	.	8cc\	.	8ee\	.	4r	.	4r	.	.	4r	8cc\	8ee\
.	.	.	8b\J	.	8dd\J	.	.	.	.	.	.	.	8b\J	8dd\J
!	!	!	!	!	!	!	!LO:LB:g=original	!	!	!	!	!	!	!
=23	=23	=23	=23	=23	=23	=23	=23	=23	=23	=23	=23	=23	=23	=23
!	!	!	!	!	!	!	!LO:N:vis=00	!LO:N:vis=00	!	!	!	!	!	!
4r	.	.	8a/	.	8cc\	.	0r	.	0r	.	2ryy	4r	4a/	4cc\
.	.	.	4f#X/	.	4a/	.	.	.	.	.	.	.	.	.
8r	.	.	.	.	.	.	.	.	.	.	.	8r	4cc\	8aa\L
!	!	!	!	!	!	!LO:DY:b:t=f.:rj	!	!	!	!	!	!	!	!
8D\	7 5	.	8a 8d/	.	8ff#X 8a 8d/	f	.	.	.	.	.	8dd\	.	8ff#X\J
=24	=24	=24	=24	=24	=24	=24	=24	=24	=24	=24	=24	=24	=24	=24
4GG/	.	.	8b 8d 8G/	.	8gg 8b 8d/	.	.	.	.	.	2ryy	4dd\	4b\	4gg\
!	!	!	!	!	!	!LO:DY:b:t=p.	!	!	!	!	!	!	!	!
.	.	.	8b\L	.	8dd\L	p	.	.	.	.	.	.	.	.
4r	.	.	8cc\	.	8ee\	.	.	.	.	.	.	8r	4r	4r
.	.	.	8b\J	.	8dd\J	.	.	.	.	.	.	8dd\	.	.
!	!	!	!LO:LB:g=original	!	!	!	!	!	!	!	!	!	!	!
=25	=25	=25	=25	=25	=25	=25	=25	=25	=25	=25	=25	=25	=25	=25
!	!	!	!	!	!	!	!	!	!	!	!	!LO:SIC:s=4cc:v	!	!
4r	.	.	8a/	.	8cc\	.	.	.	.	.	2ryy	4dd\	4r	4r
.	.	.	4f#X/	.	4a/	.	.	.	.	.	.	.	.	.
8r	.	.	.	.	.	.	.	.	.	.	.	4r	8r	8r
!	!	!	!	!	!	!LO:DY:b	!	!	!	!	!	!	!	!
8D\	#7	.	8a 8d/	.	8ff#X 8a 8d/	f	.	.	.	.	.	.	8a/	8ff#X\
=26	=26	=26	=26	=26	=26	=26	=26	=26	=26	=26	=26	=26	=26	=26
!	!	!	!	!	!	!	!	!	!	!	!	!LO:TX:a:t=P:problem:pominięty fragment	!	!
4GG/	.	.	8b\L	.	8gg 8b 8d/	.	.	.	.	.	2ryy	2ryy	8b\L	8gg\L
!	!	!	!	!	!	!LO:DY:b	!	!	!	!	!	!	!	!
.	.	.	8b\	.	8dd\L	p	.	.	.	.	.	.	8b\	8dd\
4r	.	.	8cc\	.	8ee\	.	.	.	.	.	.	.	8cc\	8ee\
.	.	.	8b\J	.	8dd\J	.	.	.	.	.	.	.	8b\J	8dd\J
=27	=27	=27	=27	=27	=27	=27	=27	=27	=27	=27	=27	=27	=27	=27
4r	.	.	8ee\L	.	8gg\L	.	2r	.	2r	.	2ryy	4r	8b\L	8gg\L
.	.	.	8dd\	.	8ffn\	.	.	.	.	.	.	.	8dd\	8ffn\
8r	.	.	8cc\	.	8ee\	.	.	.	.	.	.	8r	8cc\	8ee\
8GG/	.	.	8b\J	.	8dd\J	.	.	.	.	.	.	8dd\	8b\J	8dd\J
!	!	!	!	!	!	!	!	!	!	!	!	!LO:LB:g=original	!	!
=28	=28	=28	=28	=28	=28	=28	=28	=28	=28	=28	=28	=28	=28	=28
!	!	!	!	!	!	!LO:DY:b:t=for	!	!	!	!	!	!	!	!
8C/L	.	.	4cc\	.	4cc\	f	8.c\	ge-	8.cc\	ge-	2ryy	4cc\	4cc\	4cc\
8C/	.	.	.	.	.	.	.	.	.	.	.	.	.	.
.	.	.	.	.	.	.	16c\	-ni-	16cc\	-ni-	.	.	.	.
8BB/	.	.	4dd\	.	4dd\	.	4G\	-tum	4dd\	-tum	.	4dd\	4g\	4dd\
8GG/J	6	.	.	.	.	.	.	.	.	.	.	.	.	.
!	!	!	!	!	!	!	!	!	!	!	!	!	!	!LO:LB:g=original
=29	=29	=29	=29	=29	=29	=29	=29	=29	=29	=29	=29	=29	=29	=29
4C/	.	.	8r	.	8r	.	4c\	non	8r	.	2ryy	4ee\	4g\	4ee\
.	.	.	8ee\	.	8ee\	.	.	.	8ee\	non	.	.	.	.
.	.	.	8qqgg/	.	8qqgg/	.	.	.	.	.	.	.	.	.
8r	.	.	8ff\L	.	8ff\L	.	8r	.	8ff\	.	.	8r	8dd\L	8ff\L
*	*	*	*	*	*	*	*	*ij	*	*ij	*	*	*	*
8GG/	7	.	16ee\L	.	16ee\L	.	8G\	non	16ee\LL	non	.	8dd\	8g\J	16ee\L
.	.	.	16dd\JJ	.	16dd\JJ	.	.	.	16dd\JJ	.	.	.	.	16dd\JJ
*	*	*	*	*	*	*	*	*Xij	*	*Xij	*	*	*	*
=30	=30	=30	=30	=30	=30	=30	=30	=30	=30	=30	=30	=30	=30	=30
!LO:TX:a:t=P:znak początku repetycji:problem	!	!	!	!	!	!	!	!	!	!	!	!	!	!
4C/	.	.	4cc\	.	4cc\	.	4c\	fac-	4cc\	fac-	2ryy	4cc\	4e/	4cc\
!LO:TX:a:i:t=bis	!	!	!	!	!	!	!	!	!	!	!	!	!	!
8r	.	.	4dd\	.	4dd\	.	4G\	-tum	4dd\	-tum	.	4dd\	4g/	4dd\
8GG/	.	.	.	.	.	.	.	.	.	.	.	.	.	.
!LO:TX:a:t=P:znak końca repetycji:problem	!	!	!	!	!	!	!	!	!	!	!	!	!	!
=31	=31	=31	=31	=31	=31	=31	=31	=31	=31	=31	=31	=31	=31	=31
*rep	*	*	*	*	*	*	*	*	*	*	*	*	*	*
!LO:TX:a:t=P:powtórzenie taktu oznaczone znakami repetycji:problem	!	!	!	!	!	!	!	!	!	!	!	!	!	!
4C/	.	.	8r	.	8r	.	4c\	con-	8r	.	2ryy	4ee\	4g/	4ee\
.	.	.	8ee\	.	8ee\	.	.	.	8ee\	con-	.	.	.	.
.	.	.	8qqgg/	.	8qqgg/	.	.	.	.	.	.	.	.	.
8r	.	.	8ff\L	.	8ff\L	.	4G\	-ſub-	8ff\	.	.	8r	8dd\L	8ff\L
8GG/	.	.	16ee\L	.	16ee\L	.	.	.	16ee\LL	-ſub-	.	8dd\	8g\J	16ee\L
.	.	.	16dd\JJ	.	16dd\JJ	.	.	.	16dd\JJ	.	.	.	.	16dd\JJ
*Xrep	*	*	*	*	*	*	*	*	*	*	*	*	*	*
=32	=32	=32	=32	=32	=32	=32	=32	=32	=32	=32	=32	=32	=32	=32
*tremolo	*	*	*	*	*	*	*	*	*	*	*	*	*	*
8C/L	.	.	4cc\	.	4cc\	.	4C/	-stan-	4cc\	-stan-	2ryy	4cc\	2ee\	2gg\
8C/	.	.	.	.	.	.	.	.	.	.	.	.	.	.
8C/	.	.	8ee\L	.	8ee\L	.	4C/	-ti-	4ee\	-ti-	.	4r	.	.
8C/J	.	.	8gg\J	.	8gg\J	.	.	.	.	.	.	.	.	.
=33	=33	=33	=33	=33	=33	=33	=33	=33	=33	=33	=33	=33	=33	=33
8C/L	6 4	.	4cc\	.	4cc\	.	4C/	-a-	4ff\	-al-	2ryy	4cc\	2ff\	2aa\
8C/	.	.	.	.	.	.	.	.	.	.	.	.	.	.
8C/	.	.	8ff\L	.	8ff\L	.	4C/	-lem	4ff\	-em	.	4r	.	.
8C/J	.	.	8aa\J	.	8aa\J	.	.	.	.	.	.	.	.	.
!LO:LB:g=original	!	!	!	!	!LO:LB:g=original	!	!	!	!LO:LB:g=original	!	!	!	!LO:LB:g=original	!
=34	=34	=34	=34	=34	=34	=34	=34	=34	=34	=34	=34	=34	=34	=34
8C/L	5 3	.	4cc\	.	4cc\	.	4C/	pa-	4ee\	pa-	2ryy	4cc\	2ee\	2gg\
8C/	.	.	.	.	.	.	.	.	.	.	.	.	.	.
8C/	.	.	8ee\L	.	8ee\L	.	4c\	-tri	4ee\	-tri	.	4r	.	.
8C/J	.	.	8gg\J	.	8gg\J	.	.	.	.	.	.	.	.	.
*Xtremolo	*	*	*	*	*	*	*	*	*	*	*	*	*	*
=35	=35	=35	=35	=35	=35	=35	=35	=35	=35	=35	=35	=35	=35	=35
8C/L	4 2	.	16gg\LL	.	8ff\L	.	8c\	per	8dd\	per	2ryy	2dd\	2dd\	2ff\
.	.	.	16ff\	.	.	.	.	.	.	.	.	.	.	.
8C/	.	.	16ddd\	.	16ddd\L	.	8c\	quem	8dd\	quem	.	.	.	.
.	.	.	16ccc\JJ	.	16ccc\JJ	.	.	.	.	.	.	.	.	.
!	!	!	!LO:LB:g=original	!	!	!	!	!	!	!	!	!	!	!
8BB/	6 5	.	16bb\LL	.	16bb\LL	.	8B\	om-	8ff\	om-	.	.	.	.
.	.	.	16aa\	.	16aa\	.	.	.	.	.	.	.	.	.
8BB/J	.	.	16gg\	.	16gg\	.	16B\	-ni	16ff\	-ni	.	.	.	.
.	.	.	16ff\JJ	.	16ff\JJ	.	16B\	-a	16ff\	-a	.	.	.	.
!	!	!	!	!	!	!	!LO:LB:g=original	!	!	!	!	!	!	!
=36	=36	=36	=36	=36	=36	=36	=36	=36	=36	=36	=36	=36	=36	=36
*tremolo	*	*	*	*	*	*	*	*	*	*	*	*	*	*
8C/L	5 3	.	4ee\	.	4ee\	.	8.c\	fac-	8.ee\	fac-	2ryy	4ee\	4cc\	4ee\
8C/	.	.	.	.	.	.	.	.	.	.	.	.	.	.
.	.	.	.	.	.	.	16C/	-ta	16ee\	-ta	.	.	.	.
8C/	.	.	16gg\LL	.	16gg\LL	.	8C/	ſunt	8ee\	ſunt	.	4r	4ee\	4gg\
.	.	.	16ee\	.	16ee\	.	.	.	.	.	.	.	.	.
8C/J	.	.	16ee\	.	16ee\	.	8c\	qui	8ee\	qui	.	.	.	.
.	.	.	16cc\JJ	.	16cc\JJ	.	.	.	.	.	.	.	.	.
=37	=37	=37	=37	=37	=37	=37	=37	=37	=37	=37	=37	=37	=37	=37
!LO:TX:b:i:t=a	!	!	!	!	!	!	!	!	!	!	!	!	!	!
8AA/L	6	.	4ff 4a\	.	4ff\	.	4A\	pro-	4ff\	pro-	2ryy	4cc\	4cc\	4ff\
8AA/	.	.	.	.	.	.	.	.	.	.	.	.	.	.
8AA/	.	.	16aa\LL	.	16aa\LL	.	8A\	-pter	8ff\	-pter	.	4r	4ff\	4aa\
.	.	.	16ff\	.	16ff\	.	.	.	.	.	.	.	.	.
8AA/J	.	.	16ff\	.	16ff\	.	8A\	nos	8ff\	nos	.	.	.	.
!	!	!	!	!	!LO:SIC:s=16dd:v	!	!	!	!	!	!	!	!	!
.	.	.	16dd\JJ	.	16cc\JJ	.	.	.	.	.	.	.	.	.
=38	=38	=38	=38	=38	=38	=38	=38	=38	=38	=38	=38	=38	=38	=38
!LO:TX:b:i:t=d.	!	!	!	!	!	!	!	!	!	!	!	!	!	!
!LO:SIC:s=8E:v	!	!	!	!	!	!	!	!	!	!	!	!	!	!
8F\L	6\ 7\	.	4gg\	.	4gg\	.	4E\	ho-	4gg\	ho-	2ryy	4cc\	4cc\	4gg\
!LO:SIC:s=8E:v	!	!	!	!	!	!	!	!	!	!	!	!	!	!
8F\	5\	.	.	.	.	.	.	.	.	.	.	.	.	.
!LO:SIC:s=8E:v	!	!	!	!	!	!	!	!	!	!	!	!	!	!
8F\	.	.	16bb-X\LL	.	16bb-X\LL	.	4E\	-mi-	4gg\	-mi	.	4r	4gg\	4bb-X\
.	.	.	16gg\	.	16gg\	.	.	.	.	.	.	.	.	.
!LO:SIC:s=8E:v	!	!	!	!	!	!	!	!	!	!	!	!	!	!
8F\J	.	.	16gg\	.	16gg\	.	.	.	.	.	.	.	.	.
.	.	.	16ee\JJ	.	16ee\JJ	.	.	.	.	.	.	.	.	.
*Xtremolo	*	*	*	*	*	*	*	*	*	*	*	*	*	*
=39	=39	=39	=39	=39	=39	=39	=39	=39	=39	=39	=39	=39	=39	=39
*	*^	*	*	*	*	*	*	*	*	*	*	*	*	*
!LO:TX:b:i:t=dis=	!	!	!	!	!	!	!	!	!	!	!	!	!	!	!
!LO:SIC:s=4F:v	!	!	!	!	!	!	!	!	!	!	!	!	!	!	!
4E\	6	5	.	8ff\	.	8aa\L	.	8F\	-nes	8ff\	-nes	2ryy	4cc\	4ff\	4aa\
.	.	.	.	8aa\L	.	8ccc\	.	8A\	et	8cc\	et	.	.	.	.
4r	.	.	.	8bb-X\	.	8ddd\	.	8B-X\	pro-	8dd\	pro-	.	4r	4r	4r
.	.	.	.	8aa\J	.	8ccc\J	.	8A\	-pter	8cc\	-pter	.	.	.	.
=40	=40	=40	=40	=40	=40	=40	=40	=40	=40	=40	=40	=40	=40	=40	=40
4r	.	.	.	8gg\	.	8bb-X\	.	8.G\	ho-	8.b-X\	ho-	2ryy	4r	4r	4r
.	.	.	.	4ee\	.	4gg\	.	.	.	.	.	.	.	.	.
!	!	!	!	!	!	!	!	!	!	!LO:SIC:s=16b-:v	!	!	!	!	!
.	.	.	.	.	.	.	.	16G\	-mi-	16a\	-mi-	.	.	.	.
8r	.	.	.	.	.	.	.	8F\	-nes	8a\	-nes	.	8r	8r	8r
!	!	!	!	!	!	!	!LO:DY:b:rj	!	!	!	!	!	!	!	!
!	!	!	!	!LO:SIC:n=2:s=8cc:v	!	!	!	!	!	!	!	!	!	!	!
8C/	6	7	.	8ee 8b-X\	.	8gg 8cc 8e\	f	8r	.	8ee\	Cre-	.	8b\	8ee\	8gg\
!	!	!	!	!	!	!	!	!	!	!LO:LB:g=original	!	!	!LO:LB:g=original	!	!
*	*v	*v	*	*	*	*	*	*	*	*	*	*	*	*	*
=41	=41	=41	=41	=41	=41	=41	=41	=41	=41	=41	=41	=41	=41	=41
4F\	.	.	8ff 8a\	.	8aa 8cc 8f\	.	8r	.	8ff\	-do	2ryy	4cc\	4ff\	4aa\
!	!	!	!	!	!	!LO:DY:b	!	!	!	!	!	!	!	!
.	.	.	8aa\L	.	8ccc\L	p	8A\	pro-	8cc\	et	.	.	.	.
!	!	!	!LO:SIC:s=8bb-:v	!	!	!	!LO:SIC:s=8B-:v	!	!	!	!	!	!	!
4r	.	.	8bb\	.	8ddd\	.	8B\	-pter	8dd\	pro-	.	4r	4r	4r
.	.	.	8aa\J	.	8ccc\J	.	8A\	nos	16cc\	-pter	.	.	.	.
.	.	.	.	.	.	.	.	.	16cc\	nos	.	.	.	.
=42	=42	=42	=42	=42	=42	=42	=42	=42	=42	=42	=42	=42	=42	=42
*	*^	*	*	*	*	*	*	*	*	*	*	*	*	*
4r	.	.	.	8gg\	.	8bb-X\	.	8.G\	ho-	8.b-X\	ho-	2ryy	4r	4r	4r
.	.	.	.	4ee\	.	4gg\	.	.	.	.	.	.	.	.	.
.	.	.	.	.	.	.	.	16G\	-mi-	16b-\	-mi-	.	.	.	.
8r	.	.	.	.	.	.	.	8F\	-nes	8a\	-nes	.	8r	8r	8r
!	!	!	!	!	!	!	!LO:DY:b:rj	!	!	!	!	!	!	!	!
8C/	6	7	.	8ee 8b-X\	.	8ggL 8cc 8e\	f	8r	.	8ee\	Cre-	.	8cc\	8ee\	8gg\
!	!	!	!	!	!	!	!	!LO:LB:g=original	!	!	!	!	!	!	!
*	*v	*v	*	*	*	*	*	*	*	*	*	*	*	*	*
=43	=43	=43	=43	=43	=43	=43	=43	=43	=43	=43	=43	=43	=43	=43
!	!	!	!	!	!	!LO:DY:b:t=p.	!	!	!	!	!	!	!	!
4F\	.	.	8ff 8a\	.	8aa\L	p	8r	.	8ff\	-do	2ryy	4cc\	8ff\L	8aa\L
!	!	!	!LO:LB:g=original	!	!	!	!	!	!	!	!	!	!	!
.	.	.	8ff\L	.	(>8aa\	.	8A\	et	8ff\	et	.	.	8ff\	8aa\
4r	.	.	8gg\	.	8bb-X\	.	8B-X\	pro-	8gg\	pro-	.	4r	8gg\	8bb-X\
.	.	.	8ff\J	.	8aa\J)	.	8A\	-pter	8ff\	-pter	.	.	8ff\J	8aa\J
!	!	!	!	!	!LO:LB:g=original	!	!	!	!	!	!	!	!	!LO:PB:g=original
=44	=44	=44	=44	=44	=44	=44	=44	=44	=44	=44	=44	=44	=44	=44
!	!	!	!	!	!	!	!	!	!	!	!	!LO:TX:a:t=3.	!	!
!	!	!	!	!	!	!	!	!	!	!	!	!LO:N:vis=0	!	!
4r	.	.	8ee\	.	8gg\	.	4G\	nos-	4ee\	nos-	2ryy	1r	4ee\	4gg\
.	.	.	4cc#X/	.	4ee\	.	.	.	.	.	.	.	.	.
8r	.	.	.	.	.	.	8E\	-tram	8cc#X\	-tram	.	.	4cc#X\	4ee\
!	!	!	!	!	!	!	!	!	!LO:TX:a:t=P:zamazana nuta:problem	!	!	!	!	!
8AA/	#n	.	8cc# 8e 8A/	.	8ee 8a\	.	8G\	.	8dd\	Cre-	.	.	.	.
=45	=45	=45	=45	=45	=45	=45	=45	=45	=45	=45	=45	=45	=45	=45
4D\	6	.	8dd 8f 8A/	.	8ff 8a 8d/	.	4Bn\	ſa-	8ff\	-do	2ryy	.	8dd\L	8ff\L
.	.	.	8ff\L	.	8aa\L	.	.	.	8ff\	nos-	.	.	8ff\	8aa\
4r	.	.	8ff\	.	8aa\	.	4c\	-lu-	8ff\	-tram	.	.	8ff\	8aa\
.	.	.	8ff\J	.	8aa\J	.	.	.	8ff\	.	.	.	8ff\J	8aa\J
!LO:LB:g=original	!	!	!	!	!	!	!	!	!	!	!	!	!	!
=46	=46	=46	=46	=46	=46	=46	=46	=46	=46	=46	=46	=46	=46	=46
!	!	!	!	!	!	!	!LO:TX:a:t=P:znak początku repetycji:problem	!	!	!	!	!	!	!
4BB/	6	.	8ff\	.	8aa\	.	4G\	-tem	8ff\	ſa-	2ryy	2r	8ff\	8aa\
.	.	.	4dd\	.	4ff\	.	.	.	4dd\	-lu-	.	.	4dd\	4ff\
!	!	!	!	!	!	!	!LO:TX:a:i:t=bis	!	!	!	!	!	!	!
4C/	5	.	.	.	.	.	8r	.	.	.	.	.	.	.
.	.	.	8cc\	.	8ee\	.	8G\	De-	8ccn\	.	.	.	8cc\	8ee\
!	!	!	!	!	!	!	!LO:TX:a:t=P:znak końca repetycji:problem	!	!	!	!	!	!	!
!	!	!	!	!	!	!	!	!	!LO:LB:g=original	!	!	!	!	!
=47	=47	=47	=47	=47	=47	=47	=47	=47	=47	=47	=47	=47	=47	=47
*	*	*	*	*	*	*	*rep	*	*	*	*	*	*	*
!	!	!	!	!	!	!	!LO:TX:a:t=P:powtórzenie taktu oznaczone znakami repetycji:problem	!	!	!	!	!	!	!
!LO:TX:a:t=P:mixed beam:problem	!	!	!	!	!	!	!	!	!	!	!	!	!	!
!	!	!	!	!	!	!LO:DY:b:t=for	!	!	!	!	!	!	!	!
8GG/L	.	.	8b/	.	8dd\L	f	4G	.	4b\	-tem	2ryy	8r	4b\	4dd\
!	!	!	!	!LO:DY:b:t=for	!	!	!	!	!	!	!	!	!	!
8G'>\	.	.	8g/L	f	8gg\	.	.	.	.	.	.	8gg\L	.	.
8G'>\	.	.	8g/	.	8gg\	.	8r	.	8r	.	.	8gg\	4r	4r
8G'>\J	.	.	8g/J	.	8gg\J	.	8G	.	8gg\	de-	.	8gg\J	.	.
*	*	*	*	*	*	*	*Xrep	*	*	*	*	*	*	*
=48	=48	=48	=48	=48	=48	=48	=48	=48	=48	=48	=48	=48	=48	=48
8E'>\L	.	.	8e/L	.	8ee\L	.	8E\L	-scen-	8ee\L	-scen-	2ryy	8ee\L	2ee\	2ccc\
8G'>\	.	.	8g/	.	8gg\	.	8G\	.	8gg\	.	.	8gg\	.	.
8E'>\	.	.	8e/	.	8ee\	.	8E\	.	8ee\	.	.	8ee\	.	.
8C'>\J	.	.	8c/J	.	8cc\J	.	8C\J	.	8cc\J	.	.	8cc\J	.	.
=49	=49	=49	=49	=49	=49	=49	=49	=49	=49	=49	=49	=49	=49	=49
!LO:TX:a:t=P:mixed beam:problem	!	!	!	!	!LO:TX:a:t=P:mixed beam:problem	!	!	!	!	!	!	!LO:TX:a:t=P:mixed beam:problem	!	!
8GG'>/L	.	.	8G/L	.	8g/L	.	4GG/	-dit	4g\	-dit	2ryy	8g/L	4dd\	4bb\
8G'>\	.	.	8g/	.	8gg\	.	.	.	.	.	.	8gg\	.	.
8G'>\	.	.	8g/	.	8gg\	.	8r	.	8r	.	.	8gg\	4r	4r
8G'>\J	.	.	8g/J	.	8gg\J	.	8G\	De-	8gg\	de	.	8gg\J	.	.
=50	=50	=50	=50	=50	=50	=50	=50	=50	=50	=50	=50	=50	=50	=50
8E'>\L	.	.	8e/L	.	8ee\L	.	8E\L	-scen-	8ee\L	Cae-	2ryy	8ee\L	2cc\	2ee\
8G'>\	.	.	8g/	.	8gg\	.	8G\	.	8gg\	.	.	8gg\	.	.
8E'>\	.	.	8e/	.	8ee\	.	8E\	.	8ee\	.	.	8ee\	.	.
8C'>\J	.	.	8c/J	.	8cc\J	.	8C\J	.	8cc\J	.	.	8cc\J	.	.
=51	=51	=51	=51	=51	=51	=51	=51	=51	=51	=51	=51	=51	=51	=51
!	!	!	!	!	!	!	!	!	!	!	!	!	!	!LO:TX:a:t=P:problem:pominięty fragment
4GG;>/	.	.	4G;/	.	4g/	.	4GG/	-dit	4g\	-lis	2ryy	4g/	4b\	2ryy
4r	.	.	4r	.	4r;>	.	4r;>	.	4r;>	.	.	4r	4r;>	.
!LO:LB:g=original	!	!	!LO:LB:g=original	!	!	!	!	!	!	!	!	!	!LO:PB:g=original	!
=52||	=52||	=52||	=52||	=52||	=52||	=52||	=52||	=52||	=52||	=52||	=52||	=52||	=52||	=52||
*M3/4	*	*	*M3/4	*	*M3/4	*	*M3/4	*	*M3/4	*	*M3/4	*M3/4	*M3/4	*M3/4
!	!	!	!LO:TX:a:i:t=and&colon;	!	!LO:TX:a:i:t=and&colon;	!	!	!	!	!	!	!	!	!
!	!	!	!LO:TX:b:i:t=Et in Carnatus	!	!LO:TX:b:i:t=Et in Carnatus	!	!LO:TX:a:i:t=ada&colon;	!	!LO:TX:a:i:t=ada&colon;	!	!	!LO:TX:a:i:t=ada&colon;	!	!
!LO:SIC:o=Et in Carnatus:v:t=w źródle napis ten znajduje się przed kluczem i oznaczeniem metrum	!	!	!	!	!	!	!	!	!	!	!	!	!	!LO:SIC:s=Et in Carnatus Tacet:v:t=w źródle brak informacji o tym Tacecie
!	!	!	!	!	!	!	!	!	!	!	!	!	!LO:SIC:o=Et in Carnatus Tacet:v:t=w źródle napis ten zjanduje się przed kluczem i oznaczeniem metrum	!
!	!	!	!	!	!	!	!LO:N:vis=00	!	!	!	!	!	!	!
8r	.	.	8r	.	8r	.	0.r	.	4g\	Et	2.ryy	4cc\	2.ryy	2.ryy
8C/	.	.	8e 8G/	.	8cc\L	.	.	.	.	.	.	.	.	.
*tremolo	*	*	*tremolo	*	*	*	*	*	*	*	*	*	*	*
8C/L	.	.	16e 16G/LL	.	8cc\	.	.	.	4cc\	in-	.	4r	.	.
.	.	.	16e 16G/	.	.	.	.	.	.	.	.	.	.	.
8C/	.	.	16e 16G/	.	8cc\	.	.	.	.	.	.	.	.	.
.	.	.	16e 16G/	.	.	.	.	.	.	.	.	.	.	.
8C/	.	.	16e 16G/	.	8cc\	.	.	.	4cc\	-car-	.	4r	.	.
.	.	.	16e 16G/	.	.	.	.	.	.	.	.	.	.	.
8C/J	.	.	16e 16G/	.	8cc\J	.	.	.	.	.	.	.	.	.
.	.	.	16e 16G/JJ	.	.	.	.	.	.	.	.	.	.	.
*Xtremolo	*	*	*	*	*	*	*	*	*	*	*	*	*	*
=53	=53	=53	=53	=53	=53	=53	=53	=53	=53	=53	=53	=53	=53	=53
8r	.	.	8r	.	16b\LL	.	.	.	16b\LL	-na-	2.ryy	4dd\	2.ryy	2.ryy
.	.	.	.	.	16cc\	.	.	.	16cc\JJ	.	.	.	.	.
8D\L	6	.	8f 8G/	.	16dd\	.	.	.	16dd\LL	.	.	.	.	.
.	.	.	.	.	16cc\JJ	.	.	.	16cc\JJ	.	.	.	.	.
8D\	.	.	16f 16G/LL	.	4b\	.	.	.	4b\	-tus	.	4r	.	.
.	.	.	16f 16G/	.	.	.	.	.	.	.	.	.	.	.
8D\J	.	.	16f 16G/	.	.	.	.	.	.	.	.	.	.	.
.	.	.	16f 16G/	.	.	.	.	.	.	.	.	.	.	.
8GG/L	7	.	16f 16G/	.	8r	.	.	.	8r	.	.	4r	.	.
.	.	.	16f 16G/	.	.	.	.	.	.	.	.	.	.	.
8GG/J	.	.	16f 16G/	.	8b\	.	.	.	8b\	de	.	.	.	.
.	.	.	16f 16G/JJ	.	.	.	.	.	.	.	.	.	.	.
*	*	*	*Xtremolo	*	*	*	*	*	*	*	*	*	*	*
!	!	!	!	!	!LO:LB:g=original	!	!	!	!LO:LB:g=original	!	!	!LO:LB:g=original	!	!
=54	=54	=54	=54	=54	=54	=54	=54	=54	=54	=54	=54	=54	=54	=54
8r	.	.	8r	.	16cc\LL	.	.	.	16cc\LL	ſpi-	2.ryy	4ee\	2.ryy	2.ryy
.	.	.	.	.	16dd\	.	.	.	16dd\JJ	.	.	.	.	.
8C/L	.	.	8e/L	.	16ee\	.	.	.	16ee\LL	-ri-	.	.	.	.
.	.	.	.	.	16dd\JJ	.	.	.	16dd\JJ	.	.	.	.	.
8C/	.	.	8e/	.	4cc\	.	.	.	4cc\	-tu	.	4r	.	.
8C/J	.	.	8e/	.	.	.	.	.	.	.	.	.	.	.
4C/	.	.	8e/	.	8r	.	.	.	8r	.	.	4r	.	.
.	.	.	8g/J	.	8ee\	.	.	.	8ee\	de	.	.	.	.
=55	=55	=55	=55	=55	=55	=55	=55	=55	=55	=55	=55	=55	=55	=55
!LO:TX:a:t=P:mixed beam:problem	!	!	!	!	!	!	!	!	!	!	!	!	!	!
8F\L	.	.	16g/LL	.	16ee\LL	.	.	.	16ee\LL	ſpi-	2.ryy	4r	2.ryy	2.ryy
.	.	.	16a/	.	16ff\	.	.	.	16ff\JJ	.	.	.	.	.
8F\	.	.	16g/	.	16ee\	.	.	.	16ff\	-ri-	.	.	.	.
.	.	.	16f/JJ	.	16dd\JJ	.	.	.	16dd\	-tu	.	.	.	.
8G\	.	.	4e/	.	4cc\	.	.	.	4cc\	ſan-	.	4ee\	.	.
8G\	.	.	.	.	.	.	.	.	.	.	.	.	.	.
8GG/	4	.	4d/	.	4b\	.	.	.	4b\	.	.	4dd\	.	.
8GG/J	3	.	.	.	.	.	.	.	.	.	.	.	.	.
=56	=56	=56	=56	=56	=56	=56	=56	=56	=56	=56	=56	=56	=56	=56
!	!	!	!LO:TX:a:t=P:mixed beam:problem	!	!	!	!	!	!	!	!	!	!	!
!	!	!	!	!	!	!	!LO:N:vis=00	!	!	!	!	!	!	!
4C/	.	.	8e/L	.	8cc\	.	0.r	.	4cc\	-cto	2.ryy	4cc\	2.ryy	2.ryy
.	.	.	8ee\	.	8gg'>\L	.	.	.	.	.	.	.	.	.
4r	.	.	8dd\	.	8ff'>\	.	.	.	4r	.	.	4r	.	.
.	.	.	8cc\	.	8ee'>\	.	.	.	.	.	.	.	.	.
4r	.	.	8b\	.	8dd'>\	.	.	.	4r	.	.	4r	.	.
.	.	.	8a\J	.	8cc'>\J	.	.	.	.	.	.	.	.	.
!LO:LB:g=original	!	!	!	!	!	!	!	!	!	!	!	!	!	!
=57	=57	=57	=57	=57	=57	=57	=57	=57	=57	=57	=57	=57	=57	=57
!	!	!	!	!	!	!	!	!	!	!	!	!LO:TX:a:t=1.	!	!
4r	.	.	16g/LL	.	16b\LL	.	.	.	4r	.	2.ryy	2.r	2.ryy	2.ryy
.	.	.	16a/	.	16cc\	.	.	.	.	.	.	.	.	.
.	.	.	16g/	.	16b\	.	.	.	.	.	.	.	.	.
.	.	.	16f/JJ	.	16a\JJ	.	.	.	.	.	.	.	.	.
8r	.	.	8e/L	.	8g/L	.	.	.	8r	.	.	.	.	.
8C/L	3 1	.	8c/	.	8e/	.	.	.	8ee\L	ex	.	.	.	.
8C/	4 2	.	8d/	.	8f/	.	.	.	8ff\J	.	.	.	.	.
8C/J	5 3	.	8e/J	.	8g/J	.	.	.	8gg\	Ma-	.	.	.	.
!	!	!	!LO:LB:g=original	!	!	!	!	!	!	!	!	!	!	!
=58	=58	=58	=58	=58	=58	=58	=58	=58	=58	=58	=58	=58	=58	=58
*tremolo	*	*	*	*	*	*	*	*	*	*	*	*	*	*
8C/L	4 2	.	16e/LL	.	16g/LL	.	.	.	4.ff\	-ri-	2.ryy	2.cc\	2.ryy	2.ryy
.	.	.	16d/JJ	.	16f/JJ	.	.	.	.	.	.	.	.	.
8C/	.	.	4d/	.	4f/	.	.	.	.	.	.	.	.	.
8C/	5 3	.	.	.	.	.	.	.	.	.	.	.	.	.
8C/	.	.	16e/LL	.	16g/LL	.	.	.	16gg\LL	-a	.	.	.	.
.	.	.	16f/JJ	.	16a/JJ	.	.	.	16aa\JJ	.	.	.	.	.
8C/	4 2	.	16e/LL	.	16g/LL	.	.	.	16gg\LL	vir-	.	.	.	.
.	.	.	16d/	.	16f/	.	.	.	16ff\JJ	.	.	.	.	.
8C/J	.	.	16c/	.	16e/	.	.	.	16ee\LL	-gi-	.	.	.	.
.	.	.	16d/JJ	.	16f/JJ	.	.	.	16ff\JJ	.	.	.	.	.
*Xtremolo	*	*	*	*	*	*	*	*	*	*	*	*	*	*
=59	=59	=59	=59	=59	=59	=59	=59	=59	=59	=59	=59	=59	=59	=59
!	!	!	!LO:TX:a:t=P:mixed beam:problem	!	!LO:TX:a:t=P:mixed beam:problem	!	!	!	!	!	!	!	!	!
4C/	.	.	8e/L	.	8e/L	.	.	.	4ee\	-ne	2.ryy	4cc\	2.ryy	2.ryy
.	.	.	8ee\	.	8gg\	.	.	.	.	.	.	.	.	.
4r	.	.	8dd\	.	8ff\	.	.	.	4r	.	.	4r	.	.
.	.	.	8cc\	.	8ee\	.	.	.	.	.	.	.	.	.
4r	.	.	8b\	.	8dd\	.	.	.	4r	.	.	4r	.	.
.	.	.	8a\J	.	8cc\J	.	.	.	.	.	.	.	.	.
!	!	!	!	!	!	!	!	!	!LO:LB:g=original	!	!	!	!	!
=60	=60	=60	=60	=60	=60	=60	=60	=60	=60	=60	=60	=60	=60	=60
!	!	!	!	!	!	!	!LO:N:vis=0	!	!	!	!	!LO:N:vis=0	!	!
4r	.	.	16g/LL	.	16b\LL	.	1.r	.	4r	.	2.ryy	1.r	2.ryy	2.ryy
.	.	.	16a/	.	16cc\	.	.	.	.	.	.	.	.	.
.	.	.	16g/	.	16b\	.	.	.	.	.	.	.	.	.
.	.	.	16f/JJ	.	16a\JJ	.	.	.	.	.	.	.	.	.
8r	.	.	8e/L	.	8g/L	.	.	.	8r	.	.	.	.	.
8C/L	3 1	.	8c/	.	8e/	.	.	.	8ee\L	et	.	.	.	.
8C/	4 2	.	8d/	.	8f/	.	.	.	8ff\	.	.	.	.	.
8C/J	5 3	.	8e/J	.	8g/J	.	.	.	8gg\J	.	.	.	.	.
!	!	!	!	!	!LO:LB:g=original	!	!	!	!	!	!	!	!	!
=61	=61	=61	=61	=61	=61	=61	=61	=61	=61	=61	=61	=61	=61	=61
*tremolo	*	*	*	*	*	*	*	*	*	*	*	*	*	*
8C/L	4 3	.	16e/LL	.	16g/LL	.	.	.	16gg\LL	ho-	2.ryy	.	2.ryy	2.ryy
.	.	.	16d/JJ	.	16f/JJ	.	.	.	16ff\JJ	.	.	.	.	.
8C/	.	.	4d/	.	4f/	.	.	.	4ff\	-mo	.	.	.	.
8C/	.	.	.	.	.	.	.	.	.	.	.	.	.	.
8C/	.	.	16e/LL	.	16g/LL	.	.	.	16gg\LL	.	.	.	.	.
.	.	.	16f/JJ	.	16a/JJ	.	.	.	16aa\JJ	.	.	.	.	.
8C/	.	.	16e/LL	.	16g/LL	.	.	.	16gg\LL	fac-	.	.	.	.
.	.	.	16d/	.	16f/	.	.	.	16ff\JJ	.	.	.	.	.
8C/J	.	.	16c/	.	16e/	.	.	.	16ee\LL	-tus	.	.	.	.
.	.	.	16d/JJ	.	16f/JJ	.	.	.	16ff\JJ	.	.	.	.	.
!	!	!	!	!	!	!	!	!	!	!	!	!LO:LB:g=original	!	!
=62	=62	=62	=62	=62	=62	=62	=62	=62	=62	=62	=62	=62||	=62	=62
!	!	!	!	!	!	!	!	!	!	!	!	!LO:TX:a:t=P:problem:pominięty fragment; najprawdopodobniej Tacet	!	!
8C/L	.	.	2d/	.	2f/	.	2.r	.	2ff\	eſt	2.ryy	2.ryy	2.ryy	2.ryy
8C/	.	.	.	.	.	.	.	.	.	.	.	.	.	.
8C/	.	.	.	.	.	.	.	.	.	.	.	.	.	.
8C/J	.	.	.	.	.	.	.	.	.	.	.	.	.	.
*Xtremolo	*	*	*	*	*	*	*	*	*	*	*	*	*	*
8C/	.	.	8c/	.	8e/	.	.	.	8ee\	.	.	.	.	.
8r	.	.	8r	.	8r	.	.	.	8r	.	.	.	.	.
!	!	!	!	!	!	!	!LO:LB:g=original	!	!	!	!	!	!	!
=63	=63	=63	=63	=63	=63	=63	=63	=63	=63	=63	=63	=63	=63	=63
!	!	!LO:DY:b:t=p.:rj	!	!	!	!	!	!	!	!	!	!	!	!
!	!	!	!	!	!	!	!	!	!LO:N:vis=00	!	!	!	!	!
8C/	-	p	8r	.	8r	.	4C/	Cru-	0.r	.	2.ryy	2.ryy	2.ryy	2.ryy
8r	.	.	8ee-X\	.	8gg\	.	.	.	.	.	.	.	.	.
8C/	.	.	8r	.	8r	.	4E-X\	.	.	.	.	.	.	.
8r	.	.	8ee-\	.	8gg\	.	.	.	.	.	.	.	.	.
!	!	!	!LO:LB:g=original	!	!	!	!	!	!	!	!	!	!	!
8C/	.	.	8r	.	8r	.	4G\	-ci-	.	.	.	.	.	.
8r	.	.	8ee-\	.	8gg\	.	.	.	.	.	.	.	.	.
=64	=64	=64	=64	=64	=64	=64	=64	=64	=64	=64	=64	=64	=64	=64
8C/	4 2	.	8r	.	8r	.	4F\	-fi-	.	.	2.ryy	2.ryy	2.ryy	2.ryy
8r	.	.	8dd\	.	8ff\	.	.	.	.	.	.	.	.	.
8C/	.	.	8r	.	8r	.	4F\	-xus	.	.	.	.	.	.
8r	.	.	8dd\	.	8ff\	.	.	.	.	.	.	.	.	.
8C/	.	.	8r	.	8r	.	4r	.	.	.	.	.	.	.
8r	.	.	8dd\	.	8ff\	.	.	.	.	.	.	.	.	.
!LO:LB:g=original	!	!	!	!	!	!	!	!	!	!	!	!	!	!
=65	=65	=65	=65	=65	=65	=65	=65	=65	=65	=65	=65	=65	=65	=65
8BB/	6	.	8r	.	8r	.	4.F\	e-	.	.	2.ryy	2.ryy	2.ryy	2.ryy
8r	.	.	8dd\	.	8ff\	.	.	.	.	.	.	.	.	.
8BB/	.	.	8r	.	8r	.	.	.	.	.	.	.	.	.
8r	.	.	8dd\	.	8ff\	.	16G\LL	-ti-	.	.	.	.	.	.
.	.	.	.	.	.	.	16A-X\JJ	.	.	.	.	.	.	.
8BB/	.	.	8r	.	8r	.	8G\	-am	.	.	.	.	.	.
8r	.	.	8dd\	.	8ff\	.	8F\	pro-	.	.	.	.	.	.
=66	=66	=66	=66	=66	=66	=66	=66	=66	=66	=66	=66	=66	=66	=66
8C/	-	.	8r	.	8r	.	4E-X\	-no-	.	.	2.ryy	2.ryy	2.ryy	2.ryy
8r	.	.	8g/	.	8ee-X\	.	.	.	.	.	.	.	.	.
8C/	.	.	8r	.	8r	.	8E-\	-bis	.	.	.	.	.	.
8r	.	.	8g/	.	8ee-\	.	4r	.	.	.	.	.	.	.
8C/	.	.	8r	.	8r	.	.	.	.	.	.	.	.	.
8r	.	.	8g/	.	8ee-\	.	8c\	ſub	.	.	.	.	.	.
=67	=67	=67	=67	=67	=67	=67	=67	=67	=67	=67	=67	=67	=67	=67
!	!	!	!	!	!LO:TX:a:t=P:znak początku repetycji:problem	!	!	!	!	!	!	!	!	!
!LO:N:vis=8.	!	!	!	!	!	!	!	!	!	!	!	!	!	!
!	!	!	!	!	!	!	!	!	!LO:N:vis=00	!	!	!	!	!
8C/	4 2	.	8r	.	8r	.	4.c\	pon-	0.r	.	2.ryy	2.ryy	2.ryy	2.ryy
8r	.	.	8a/	.	8dd\	.	.	.	.	.	.	.	.	.
8C/	.	.	8r	.	8r	.	.	.	.	.	.	.	.	.
8r	.	.	8a/	.	8dd\	.	8An\	-ti-	.	.	.	.	.	.
8C/	.	.	8r	.	8r	.	8G\	-o	.	.	.	.	.	.
8r	.	.	8a/	.	8dd\	.	8F#X\	pi-	.	.	.	.	.	.
!	!	!	!	!	!LO:LB:g=original	!	!	!	!	!	!	!	!	!
=68	=68	=68	=68	=68	=68	=68	=68	=68	=68	=68	=68	=68	=68	=68
8BBn/	6	.	8r	.	8r	.	4G\	-la-	.	.	2.ryy	2.ryy	2.ryy	2.ryy
8r	.	.	8g/	.	8dd\	.	.	.	.	.	.	.	.	.
8BB/	.	.	8r	.	8r	.	4GG/	-to	.	.	.	.	.	.
8r	.	.	8g/	.	8dd\	.	.	.	.	.	.	.	.	.
8BB/	.	.	8r	.	8r	.	4r	.	.	.	.	.	.	.
8r	.	.	8g/	.	8dd\	.	.	.	.	.	.	.	.	.
!	!	!	!	!	!LO:TX:a:t=P:znak końca repetycji:problem	!	!	!	!	!	!	!	!	!
=69	=69	=69	=69	=69	=69	=69	=69	=69	=69	=69	=69	=69	=69	=69
*	*	*	*	*	*rep	*	*	*	*	*	*	*	*	*
!	!	!	!	!	!LO:TX:a:t=P:powtórzenie taktów oznaczone znakami repetycji:problem	!	!	!	!	!	!	!	!	!
8C/	4 2	.	8r	.	8r	.	4.c\	pas-	.	.	2.ryy	2.ryy	2.ryy	2.ryy
8r	.	.	8a/	.	8dd\	.	.	.	.	.	.	.	.	.
8C/	.	.	8r	.	8r	.	.	.	.	.	.	.	.	.
8r	.	.	8a/	.	8dd\	.	8An\	-ſus	.	.	.	.	.	.
!	!	!	!LO:LB:g=original	!	!	!	!	!	!	!	!	!	!	!
8C/	.	.	8r	.	8r	.	8G\	et	.	.	.	.	.	.
8r	.	.	8a/	.	8dd\	.	8F#X\	se-	.	.	.	.	.	.
!	!	!	!	!	!	!	!LO:LB:g=original	!	!	!	!	!	!	!
=70	=70	=70	=70	=70	=70	=70	=70	=70	=70	=70	=70	=70	=70	=70
8BB/	6	.	8r	.	8r	.	8.G\	-pul-	.	.	2.ryy	2.ryy	2.ryy	2.ryy
8r	.	.	8g/	.	8dd\	.	.	.	.	.	.	.	.	.
.	.	.	.	.	.	.	16GG/	-tus	.	.	.	.	.	.
8BB/	.	.	8r	.	8r	.	4GG/	ſst	.	.	.	.	.	.
8r	.	.	8g/	.	8dd\	.	.	.	.	.	.	.	.	.
8BB/	.	.	8r	.	8r	.	4r	.	.	.	.	.	.	.
8r	.	.	8g/	.	8dd\	.	.	.	.	.	.	.	.	.
*	*	*	*	*	*Xrep	*	*	*	*	*	*	*	*	*
!LO:LB:g=original	!	!	!	!	!	!	!	!	!	!	!	!	!	!
=71	=71	=71	=71	=71	=71	=71	=71	=71	=71	=71	=71	=71	=71	=71
4C/	-n	.	8r	.	8r	.	8E-X\	pas-	8cc\	pas-	2.ryy	2.ryy	2.ryy	2.ryy
!	!	!	!	!	!	!LO:DY:b:t=for	!	!	!	!	!	!	!	!
.	.	.	8ee-X\L	.	8gg\L	f	8G\	-sus	8ee-X\	-ſus	.	.	.	.
!	!	!	!	!	!	!	!LO:TX:a:t=P:niewyraźny zapis pauzy:problem	!	!	!	!	!	!	!
4r	.	.	8dd\	.	8ff\	.	4r	.	4r	.	.	.	.	.
.	.	.	8cc\	.	8ee-X\	.	.	.	.	.	.	.	.	.
4r	.	.	8bn\	.	8dd\	.	4r	.	4r	.	.	.	.	.
.	.	.	8a-X\J	.	8cc\J	.	.	.	.	.	.	.	.	.
=72	=72	=72	=72	=72	=72	=72	=72	=72	=72	=72	=72	=72	=72	=72
!	!	!	!	!	!	!LO:DY:b:t=p.:rj	!	!	!	!	!	!	!	!
4r	.	.	16g/LL	.	16bn\LL	p	4r	.	4r	.	2.ryy	2.ryy	2.ryy	2.ryy
!	!	!	!LO:SIC:s=16a-:v	!	!	!	!	!	!	!	!	!	!	!
.	.	.	16a/	.	16cc\	.	.	.	.	.	.	.	.	.
.	.	.	16g/	.	16b\	.	.	.	.	.	.	.	.	.
.	.	.	16f/JJ	.	16a-X\JJ	.	.	.	.	.	.	.	.	.
8r	.	.	8e-X/L	.	8g/L	.	8r	.	8r	.	.	.	.	.
8C/L	3 1	.	8c/	.	8e-X/	.	8E-X\L	et	8cc\	et	.	.	.	.
8C/	4 2	.	8d/	.	8f/	.	8F\J	.	8dd\	.	.	.	.	.
8C/J	5 3	.	8e-/J	.	8g/J	.	8G\	se-	8ee-X\	se-	.	.	.	.
=73	=73	=73	=73	=73	=73	=73	=73	=73	=73	=73	=73	=73	=73	=73
*tremolo	*	*	*	*	*	*	*	*	*	*	*	*	*	*
!	!	!	!LO:SIC:s=16e-:v	!	!	!	!	!	!LO:SIC:s=16ee-:v	!	!	!	!	!
!	!	!	!	!	!	!LO:DY:b	!	!	!	!	!	!	!	!
8C/L	4 2	.	16e/LL	.	16g/LL	f	16G\LL	-pul-	16ee\LL	-pul-	2.ryy	2.ryy	2.ryy	2.ryy
.	.	.	16d/JJ	.	16f/JJ	.	16F\JJ	.	16dd\JJ	.	.	.	.	.
8C/	.	.	4d/	.	4f/	.	4F\	-tus	4dd\	-tus	.	.	.	.
!	!	!	!	!	!	!	!	!	!LO:LB:g=original	!	!	!	!	!
8C/	.	.	.	.	.	.	.	.	.	.	.	.	.	.
!	!	!	!LO:SIC:s=16e-:v	!	!	!	!	!	!LO:SIC:s=16ee-:v	!	!	!	!	!
!	!	!	!	!	!	!LO:DY:b:t=p.	!	!	!	!	!	!	!	!
8C/	.	.	16e/LL	.	16g/LL	p	16G\LL	.	16ee\LL	se-	.	.	.	.
.	.	.	16f/JJ	.	16a-X/JJ	.	16A-X\JJ	se-	16ff\JJ	.	.	.	.	.
!	!	!	!LO:SIC:s=16e-:v	!	!	!	!	!	!LO:SIC:s=16ee-:v	!	!	!	!	!
8C/	.	.	16e/LL	.	16g/LL	.	16G\LL	-pul-	16ee\LL	-pul-	.	.	.	.
.	.	.	16d/	.	16f/	.	16F\JJ	.	16dd\JJ	.	.	.	.	.
!	!	!	!	!	!LO:SIC:s=16e-:v	!	!LO:SIC:s=16E-:v	!	!	!	!	!	!	!
8C/J	.	.	16c/	.	16e/	.	16E\LL	-tus	16cc\LL	-tus	.	.	.	.
.	.	.	16d/JJ	.	16f/JJ	.	16F\JJ	.	16dd\JJ	.	.	.	.	.
*Xtremolo	*	*	*	*	*	*	*	*	*	*	*	*	*	*
=74	=74	=74	=74	=74	=74	=74	=74	=74	=74	=74	=74	=74	=74	=74
!	!	!	!	!	!	!	!LO:SIC:s=8E-:v	!	!	!	!	!	!	!
!	!	!	!	!	!LO:TX:a:t=P:mixed beam:problem	!	!	!	!	!	!	!	!	!
!	!	!	!	!	!	!LO:DY:b:t=for	!	!	!	!	!	!	!	!
4C/	.	.	8c/L	.	8e-X/L	f	8E\L	eſt	8cc\L	eſt	2.ryy	2.ryy	2.ryy	2.ryy
.	.	.	8ee-X/	.	8gg\	.	8G\J	.	8ee-X\J	.	.	.	.	.
4r	.	.	8dd/	.	8ff\	.	4r	.	4r	.	.	.	.	.
.	.	.	8cc/	.	8ee-X\	.	.	.	.	.	.	.	.	.
4r	.	.	8bn/	.	8dd\	.	4r	.	4r	.	.	.	.	.
.	.	.	8a-X/J	.	8cc\J	.	.	.	.	.	.	.	.	.
!	!	!	!LO:LB:g=original	!	!	!	!	!	!	!	!	!	!	!
=75	=75	=75	=75	=75	=75	=75	=75	=75	=75	=75	=75	=75	=75	=75
4r	.	.	16g/LL	.	16bn\LL	.	4r	.	4r	.	2.ryy	2.ryy	2.ryy	2.ryy
!	!	!	!LO:SIC:s=16a-:v	!	!	!	!	!	!	!	!	!	!	!
.	.	.	16a/	.	16cc\	.	.	.	.	.	.	.	.	.
.	.	.	16g/	.	16b\	.	.	.	.	.	.	.	.	.
.	.	.	16f/JJ	.	16a-X\JJ	.	.	.	.	.	.	.	.	.
!	!	!	!	!	!LO:LB:g=original	!	!	!	!	!	!	!	!	!
8r	.	.	8e-X/L	.	8g/L	.	8r	.	8r	.	.	.	.	.
8C/L	3 1	.	8c/	.	8e-X/	.	8E\	et	8cc\L	et	.	.	.	.
8C/	4 2	.	8d/	.	8f/	.	8F\	.	8dd\J	.	.	.	.	.
8C/J	5 3	.	8e-/J	.	8g/J	.	8G\	se-	8ee-X\	se-	.	.	.	.
!	!	!	!	!	!	!	!LO:LB:g=original	!	!	!	!	!	!	!
=76	=76	=76	=76	=76	=76	=76	=76	=76	=76	=76	=76	=76	=76	=76
*tremolo	*	*	*	*	*	*	*	*	*	*	*	*	*	*
!	!	!	!LO:SIC:s=16e-:v	!	!	!	!	!	!LO:SIC:s=16ee-:v	!	!	!	!	!
8C/L	4 2	.	16e/LL	.	16g/LL	.	16G\LL	-pul-	16ee\LL	-pul-	2.ryy	2.ryy	2.ryy	2.ryy
.	.	.	16d/JJ	.	16f/JJ	.	16F\JJ	.	16dd\JJ	.	.	.	.	.
8C/	.	.	4d/	.	4f/	.	4F\	-tus	4dd\	.	.	.	.	.
8C/	.	.	.	.	.	.	.	.	.	.	.	.	.	.
!	!	!	!LO:SIC:s=16e-:v	!	!	!	!	!	!LO:SIC:s=16ee-:v	!	!	!	!	!
8C/	.	.	16e/LL	.	16g/LL	.	16G\LL	se-	16ee\LL	-tus	.	.	.	.
.	.	.	16f/JJ	.	16a-X/JJ	.	16A\JJ	.	16ff\JJ	.	.	.	.	.
!	!	!	!LO:SIC:s=16e-:v	!	!	!	!	!	!LO:SIC:s=16ee-:v	!	!	!	!	!
8C/	.	.	16e/LL	.	16g/LL	.	16G\LL	-pul	16ee\LL	et	.	.	.	.
.	.	.	16d/	.	16f/	.	16F\JJ	.	16dd\	.	.	.	.	.
!	!	!	!	!	!LO:SIC:s=16e-:v	!	!	!	!	!	!	!	!	!
8C/J	.	.	16c/	.	16e/	.	16E\LL	-tus	16cc\	.	.	.	.	.
.	.	.	16d/JJ	.	16f/JJ	.	16F\JJ	.	16dd\JJ	.	.	.	.	.
*Xtremolo	*	*	*	*	*	*	*	*	*	*	*	*	*	*
=77	=77	=77	=77	=77	=77	=77	=77	=77	=77	=77	=77	=77	=77	=77
!	!	!	!LO:TX:a:t=P:mixed beam:problem	!	!LO:TX:a:t=P:mixed beam:problem	!	!	!	!	!	!	!	!	!
8C/	-n	.	8c/L	.	8e/L	.	4E\	eſt	4cc\	eſt	2.ryy	2.ryy	2.ryy	2.ryy
8r	.	.	8cc\J	.	8ee\J	.	.	.	.	.	.	.	.	.
8A-X\	-5 3	.	8r	.	8r	.	4c\	et	4ee-X\	et	.	.	.	.
8r	.	.	8cc\	.	8ee\	.	.	.	.	.	.	.	.	.
8G\	4	.	8r	.	8r	.	4c\	se-	4ee-\	se-	.	.	.	.
8r	.	.	8cc\	.	8ee\	.	.	.	.	.	.	.	.	.
=78	=78	=78	=78	=78	=78	=78	=78	=78	=78	=78	=78	=78	=78	=78
8F#X\	6 5	.	8r	.	8r	.	2c\	-pul-	2dd\	-pul-	2.ryy	2.ryy	2.ryy	2.ryy
8r	.	.	8cc\	.	8dd\	.	.	.	.	.	.	.	.	.
8F#\	.	.	8r	.	8r	.	.	.	.	.	.	.	.	.
8r	.	.	8cc\	.	8dd\	.	.	.	.	.	.	.	.	.
8F#\	.	.	8r	.	8r	.	4c\	-tus	4dd\	-tus	.	.	.	.
8r	.	.	8cc\	.	8dd\	.	.	.	.	.	.	.	.	.
!LO:LB:g=original	!	!	!	!	!	!	!	!	!	!	!	!	!	!
=79	=79	=79	=79	=79	=79	=79	=79	=79	=79	=79	=79	=79	=79	=79
!	!	!	!	!	!	!	!LO:N:vis=2	!	!	!	!	!	!	!
8Fn\	4 2	.	8r	.	8r	.	4Bn\	eſt	4dd\	eſt	2.ryy	2.ryy	2.ryy	2.ryy
8r	.	.	8bn\	.	8dd\	.	.	.	.	.	.	.	.	.
8F\	.	.	8r	.	8r	.	4r	.	4r	.	.	.	.	.
8r	.	.	8b\	.	8dd\	.	.	.	.	.	.	.	.	.
4r	.	.	4r;>	.	4r;>	.	4r	.	4r	.	.	.	.	.
!	!	!	!LO:PB:g=original	!	!LO:PB:g=original	!	!LO:LB:g=original	!	!LO:LB:g=original	!	!	!	!	!
=80||	=80||	=80||	=80||	=80||	=80||	=80||	=80||	=80||	=80||	=80||	=80||	=80||	=80||	=80||
*M2/4	*	*	*M2/4	*	*M2/4	*	*M2/4	*	*M2/4	*	*M2/4	*M2/4	*M2/4	*M2/4
!LO:TX:b:i:t=Et Resurrexit	!	!	!LO:TX:b:i:t=Et Resurrexit	!	!	!	!	!	!	!	!	!	!LO:TX:a:i:t=moderato	!
!LO:TX:a:i:t=Allo	!	!	!LO:TX:a:i:t=Allo&colon;	!	!	!	!	!	!LO:TX:a:i:t=mod&colon;	!	!	!	!LO:TX:b:i:t=Et resurrexit	!
!	!	!	!	!	!LO:SIC:s=Et Resur&colon;:v:t=w źródle napis ten znajduje się przed kluczem i oznaczeniem metrum	!	!	!	!	!	!	!	!	!
!	!	!	!	!	!	!	!	!	!	!	!	!LO:SIC:s=Et resurrexit:v:t=w źródle napis ten znajduje się przed kluczem i oznaczeniem metrum	!	!LO:SIC:s=Et in Carnatus Tacet:v:t=w źródle brak informacji o tym Tacecie
8r	.	.	4cc 4e/	.	4cc 4e/	.	4c\	Et	4cc\	Et	2ryy	4cc\	4e/	2ryy
8C/L	.	.	.	.	.	.	.	.	.	.	.	.	.	.
8BB/	6	.	4dd 4f/	.	4dd\	.	8G\	res-	8dd\	re-	.	4dd\	4g/	.
8GG/J	7	.	.	.	.	.	8G\	-ur-	8dd\	-sur-	.	.	.	.
=81	=81	=81	=81	=81	=81	=81	=81	=81	=81	=81	=81	=81	=81	=81
4C/	.	.	8r	.	8r	.	8c\	-re-	4ee\	-re-	2ryy	4ee\	2g/	2ryy
.	.	.	8ee\	.	8ee\	.	8C/	-xit	.	.	.	.	.	.
.	.	.	8qqgg/	.	8qqgg/	.	.	.	.	.	.	.	.	.
8r	.	.	8ff\L	.	8ff\L	.	4r	.	8ff\L	-xit	.	8r	.	.
8G\	.	.	16ee\L	.	16ee\L	.	.	.	16ee\L	.	.	8dd\	.	.
.	.	.	16dd\JJ	.	16dd\JJ	.	.	.	16dd\JJ	.	.	.	.	.
=82	=82	=82	=82	=82	=82	=82	=82	=82	=82	=82	=82	=82	=82	=82
8C/L	.	.	4cc\	.	4cc 4e/	.	4c\	ter-	4cc\	ter-	2ryy	4cc\	4e/	2ryy
8C/	.	.	.	.	.	.	.	.	.	.	.	.	.	.
8BB/	6	.	4dd\	.	4dd\	.	8G\	-ti-	8dd\	-ti-	.	4dd\	4g/	.
8GG/J	7	.	.	.	.	.	8G\	-a	8dd\	-a	.	.	.	.
=83	=83	=83	=83	=83	=83	=83	=83	=83	=83	=83	=83	=83	=83	=83
4C/	.	.	8r	.	8r	.	8c\	di-	4ee\	di-	2ryy	4ee\	2g/	2ryy
.	.	.	8ee\	.	8ee\	.	8C/	-e	.	.	.	.	.	.
.	.	.	8qqgg/	.	8qqgg/	.	.	.	.	.	.	.	.	.
8r	.	.	8ff\L	.	8ff\L	.	8r	.	8ff\	-e	.	8r	.	.
8G\	.	.	16ee\L	.	16ee\L	.	8G\	se-	16ee\LL	ſe-	.	8dd\	.	.
.	.	.	16dd\JJ	.	16dd\JJ	.	.	.	16dd\JJ	.	.	.	.	.
=84	=84	=84	=84	=84	=84	=84	=84	=84	=84	=84	=84	=84	=84	=84
*tremolo	*	*	*	*	*	*	*	*	*	*	*	*	*	*
8C/L	5 3	.	4cc\	.	4cc\	.	4c\	-cun-	4cc\	-cun-	2ryy	4cc\	2ee\	2ryy
8C/	.	.	.	.	.	.	.	.	.	.	.	.	.	.
!	!	!	!	!	!	!	!LO:SIC:s=-dum:v	!	!	!	!	!	!	!
8C/	.	.	8ee\L	.	8ee\L	.	8C/	-du	8ee\	-dum	.	4r	.	.
8C/J	.	.	8gg\J	.	8gg\J	.	8C/	ſcri-	8ee\	ſcri-	.	.	.	.
=85	=85	=85	=85	=85	=85	=85	=85	=85	=85	=85	=85	=85	=85	=85
8C/L	6 4	.	4cc\	.	4cc\	.	8C/	-ptu-	8ff\	-ptu-	2ryy	4cc\	2ff\	2ryy
8C/	.	.	.	.	.	.	8C/	-ras	8ff\	-ras	.	.	.	.
8C/	.	.	8ff\L	.	8ff\L	.	8C/	et	8ff\	et	.	4r	.	.
8C/J	.	.	8aa\J	.	8aa\J	.	8C/	as-	8ff\	as-	.	.	.	.
=86	=86	=86	=86	=86	=86	=86	=86	=86	=86	=86	=86	=86	=86	=86
8C/L	5 3	.	4cc\	.	4cc\	.	4C/	-cen-	4ee\	-cen-	2ryy	4cc\	2ee\	2ryy
8C/	.	.	.	.	.	.	.	.	.	.	.	.	.	.
8C/	.	.	8ee\L	.	8ee\L	.	8C/	-dit	8ee\	-dit	.	4r	.	.
8C/J	.	.	8gg\J	.	8gg\J	.	8C/	in	8ee\	in	.	.	.	.
*Xtremolo	*	*	*	*	*	*	*	*	*	*	*	*	*	*
!	!	!	!	!	!	!	!LO:LB:g=original	!	!LO:LB:g=original	!	!	!	!	!
=87	=87	=87	=87	=87	=87	=87	=87	=87	=87	=87	=87	=87	=87	=87
8C/L	4 2	.	16gg\LL	.	16gg\LL	.	4C/	cae-	4dd\	cae-	2ryy	2dd\	2dd\	2ryy
.	.	.	16ff\	.	16ff\	.	.	.	.	.	.	.	.	.
8C/	.	.	16ddd\	.	16ddd\	.	.	.	.	.	.	.	.	.
.	.	.	16ccc\JJ	.	16ccc\JJ	.	.	.	.	.	.	.	.	.
8BB/	6 5	.	16bb\LL	.	16bb\LL	.	4BB/	-lum	4ff\	-lum	.	.	.	.
.	.	.	16aa\	.	16aa\	.	.	.	.	.	.	.	.	.
8BB/J	.	.	16gg\	.	16gg\	.	.	.	.	.	.	.	.	.
.	.	.	16ff\JJ	.	16ff\JJ	.	.	.	.	.	.	.	.	.
=88	=88	=88	=88	=88	=88	=88	=88	=88	=88	=88	=88	=88	=88	=88
*tremolo	*	*	*	*	*	*	*	*	*	*	*	*	*	*
8C/L	.	.	4ee\	.	4cc\	.	4C/	ſe-	4ee\	ſe-	2ryy	2ee\	4cc\	2ryy
8C/	.	.	.	.	.	.	.	.	.	.	.	.	.	.
8C/	.	.	16gg\LL	.	16gg\LL	.	8c\	-det	8ee\	-det	.	.	4ee\	.
.	.	.	16ee\	.	16ee\	.	.	.	.	.	.	.	.	.
8C/J	.	.	16ee\	.	16ee\	.	8c\	ad	8ee\	ad	.	.	.	.
.	.	.	16cc\JJ	.	16cc\JJ	.	.	.	.	.	.	.	.	.
!	!	!	!	!	!LO:TX:a:t=P:w źródle następny takt skreślony; pomyłka skryptora:problem	!	!	!	!	!	!	!	!	!
!	!	!	!LO:LB:g=original	!	!LO:LB:g=original	!	!	!	!	!	!	!	!	!
=89	=89	=89	=89	=89	=89	=89	=89	=89	=89	=89	=89	=89	=89	=89
8BB/L	6	.	4dd\	.	4dd\	.	4B\	dex-	4dd\	dex-	2ryy	2dd\	2dd\	2ryy
8BB/	.	.	.	.	.	.	.	.	.	.	.	.	.	.
8BB/	.	.	16gg\LL	.	16gg\LL	.	4B\	-te-	8gg\	-te-	.	.	.	.
.	.	.	16dd\	.	16dd\	.	.	.	.	.	.	.	.	.
8BB/J	.	.	16dd\	.	16dd\	.	.	.	8gg\	-ram	.	.	.	.
.	.	.	16b\JJ	.	16b\JJ	.	.	.	.	.	.	.	.	.
*Xtremolo	*	*	*	*	*	*	*	*	*	*	*	*	*	*\
!LO:LB:g=original	!	!	!	!	!	!	!	!	!	!	!	!LO:LB:g=original	!	!
=90	=90	=90	=90	=90	=90	=90	=90	=90	=90	=90	=90	=90	=90	=90
!	!	!	!	!	!	!	!	!	!	!	!	!LO:SIC:s=2cc:v	!	!
8AA/L	7	.	4cc\	.	4cc\	.	4A\	-ram	4gg\	Pa-	2ryy	2dd\	2cc\	2ryy
8AA/	.	.	.	.	.	.	.	.	.	.	.	.	.	.
8D/	7	.	16aa\LL	.	16aa\LL	.	4D\	pa-	4ff#X\	.	.	.	.	.
.	.	.	16ff#X\	.	16ff#X\	.	.	.	.	.	.	.	.	.
8D/J	.	.	16ff#\	.	16ff#\	.	.	.	.	.	.	.	.	.
.	.	.	16cc\JJ	.	16cc\JJ	.	.	.	.	.	.	.	.	.
=91	=91	=91	=91	=91	=91	=91	=91	=91	=91	=91	=91	=91	=91	=91
!	!	!	!	!LO:DY:b:t=f.:rj	!	!	!	!	!	!	!	!	!	!
4GG/	.	.	8b\	f	8b\L	.	4G\	-tris	8gg\	-tris	2ryy	4dd\	4b\	2ryy
!	!	!	!	!LO:DY:b:t=p.:rj	!	!	!	!	!	!	!	!	!	!
.	.	.	8b\L	p	8dd\	.	.	.	8r	.	.	.	.	.
4r	.	.	8cc\	.	8ee\	.	4r	.	8r	.	.	4r	4r	.
.	.	.	8b\J	.	8dd\J	.	.	.	8dd\	et	.	.	.	.
!	!	!	!	!	!	!	!	!	!	!	!	!	!LO:LB:g=original	!
=92	=92	=92	=92	=92	=92	=92	=92	=92	=92	=92	=92	=92	=92	=92
4r	.	.	8a/	.	8cc\	.	4r	.	8.cc\	i-	2ryy	4r	4r	2ryy
.	.	.	4f#X/	.	4a/	.	.	.	.	.	.	.	.	.
.	.	.	.	.	.	.	.	.	16cc\	-te-	.	.	.	.
8r	.	.	.	.	.	.	8r	.	8a\	-rum	.	8r	8r	.
!	!	!	!	!	!	!LO:DY:b:rj	!	!	!	!	!	!	!	!
8D\	7	.	8cc 8d/	.	8ff#X 8a 8d/	f	8A\	Cre-	8r	.	.	8dd\	8a/	.
=93	=93	=93	=93	=93	=93	=93	=93	=93	=93	=93	=93	=93	=93	=93
4GG/	.	.	8b 8d/	.	8gg 8b 8d/	.	4G\	-do	4r	.	2ryy	4dd\	4b/	2ryy
.	.	.	8b\L	.	8dd\L	.	.	.	.	.	.	.	.	.
4r	.	.	8cc\	.	8ee\	.	4r	.	8r	.	.	4r	4r	.
.	.	.	8b\J	.	8dd\J	.	.	.	8dd\	ven-	.	.	.	.
=94	=94	=94	=94	=94	=94	=94	=94	=94	=94	=94	=94	=94	=94	=94
4r	.	.	4.a/	.	8cc\	.	4r	.	8.cc\	tu-	2ryy	4r	4r	2ryy
.	.	.	.	.	4a/	.	.	.	.	.	.	.	.	.
.	.	.	.	.	.	.	.	.	16cc\	-rus	.	.	.	.
8r	.	.	.	.	.	.	8r	.	8a\	eſt	.	8r	8r	.
!	!	!	!LO:TX:a:t=P:w źródle 2 następne takty skreślone; pomyłka skryptora:problem	!	!	!	!	!	!	!	!	!	!	!
!	!	!	!	!	!	!LO:DY:b:rj	!	!	!	!	!	!	!	!
8D\	7	.	8f#X/	.	8ff#X 8a 8d/	f	8A\	Cre-	8r	.	.	8dd\	8a/	.
!	!	!	!	!	!	!	!	!	!LO:LB:g=original	!	!	!	!	!
=95	=95	=95	=95	=95	=95	=95	=95	=95	=95	=95	=95	=95	=95	=95
*	*	*	*	*	*	*	*	*	*	*	*	*	*tremolo	*
4GG/	.	.	8b 8d/	.	8gg 8b 8d/	.	4G\	-do	8r	.	2ryy	4dd\	8b\L	2ryy
.	.	.	8b\L	.	8dd\L	.	.	.	8dd\L	Cum	.	.	8b\	.
4r	.	.	8cc\	.	8ee\	.	4r	.	8ee\	.	.	4r	8b\	.
.	.	.	8b\J	.	8dd\J	.	.	.	8dd\J	.	.	.	8b\J	.
*	*	*	*	*	*	*	*	*	*	*	*	*	*Xtremolo	*
=96	=96	=96	=96	=96	=96	=96	=96	=96	=96	=96	=96	=96	=96	=96
4r	.	.	8ee\L	.	8gg\L	.	4G\	Cre-	8gg\L	glo-	2ryy	4r	8b\L	2ryy
.	.	.	8dd\	.	8ffn\	.	.	.	8ffn\J	.	.	.	8dd\	.
8r	.	.	8cc\	.	8ee\	.	4G\	-do	8ee\	-ri-	.	8r	8cc\	.
8GG/	7	.	8b\J	.	8dd\J	.	.	.	8dd\	-a	.	8dd\	8b\J	.
!	!	!	!	!	!	!	!LO:LB:g=original	!	!	!	!	!	!	!
=97	=97	=97	=97	=97	=97	=97	=97	=97	=97	=97	=97	=97	=97	=97
*	*	*	*	*	*^	*	*	*	*	*	*	*	*	*
*tremolo	*	*	*	*	*tremolo	*	*	*	*	*	*	*	*	*	*
!	!	!	!	!LO:DY:b:t=for	!	!	!	!	!	!	!	!	!	!	!
8C/L	.	.	16cc/LL	f	16ee/LL	16cc\LL	.	4c\	Cu-	4ee\	ju-	2ryy	2ee\	2g/	2ryy
.	.	.	16g/	.	16ee/	16cc\	.	.	.	.	.	.	.	.	.
8C/	.	.	16g/	.	16ee/	16cc\	.	.	.	.	.	.	.	.	.
.	.	.	16g/JJ	.	16ee/	16cc\	.	.	.	.	.	.	.	.	.
*	*	*	*tremolo	*	*	*	*	*	*	*	*	*	*	*	*
8C/	.	.	16g/LL	.	16ee/	16cc\	.	4c\	-jus	4ee\	-di-	.	.	.	.
.	.	.	16g/	.	16ee/	16cc\	.	.	.	.	.	.	.	.	.
8C/J	.	.	16g/	.	16ee/	16cc\	.	.	.	.	.	.	.	.	.
.	.	.	16g/JJ	.	16ee/JJ	16cc\JJ	.	.	.	.	.	.	.	.	.
*	*	*	*	*	*v	*v	*	*	*	*	*	*	*	*	*
!	!	!	!LO:LB:g=original	!	!	!	!	!	!	!	!	!	!	!
=98	=98	=98	=98	=98	=98	=98	=98	=98	=98	=98	=98	=98	=98	=98
8C/L	#4 3	.	16a 16d/LL	.	16ff#X 16a/LL	.	4c\	Re-	4ff#X\	-ca-	2ryy	2dd\	2a/	2ryy
.	.	.	16a 16d/	.	16ff#X 16a/	.	.	.	.	.	.	.	.	.
8C/	.	.	16a 16d/	.	16ff#X 16a/	.	.	.	.	.	.	.	.	.
.	.	.	16a 16d/	.	16ff#X 16a/	.	.	.	.	.	.	.	.	.
8C/	.	.	16a 16d/	.	16ff#X 16a/	.	8c\	-gni	4ff#\	-re	.	.	.	.
.	.	.	16a 16d/	.	16ff#X 16a/	.	.	.	.	.	.	.	.	.
8C/J	.	.	16a 16d/	.	16ff#X 16a/	.	8c\	non	.	.	.	.	.	.
.	.	.	16a 16d/JJ	.	16ff#X 16a/JJ	.	.	.	.	.	.	.	.	.
*Xtremolo	*	*	*	*	*Xtremolo	*	*	*	*	*	*	*	*	*
=99	=99	=99	=99	=99	=99	=99	=99	=99	=99	=99	=99	=99	=99	=99
!	!	!	!	!	!LO:TX:a:t=P:mixed beam:problem	!	!	!	!	!	!	!	!	!
8BB/L	6	.	16g/LL	.	8gg\L	.	4B\	e-	4gg\	vi-	2ryy	4dd\	4dd\	2ryy
.	.	.	16g/	.	.	.	.	.	.	.	.	.	.	.
8BB/	.	.	16g/	.	8dd\	.	.	.	.	.	.	.	.	.
.	.	.	16g/JJ	.	.	.	.	.	.	.	.	.	.	.
8C/	6	.	16g/LL	.	8ee\	.	4c\	-rit	8gg\	-vos	.	4ee\	4ee\	.
.	.	.	16g/	.	.	.	.	.	.	.	.	.	.	.
8C/J	.	.	16g/	.	8e/J	.	.	.	8gg\	et	.	.	.	.
.	.	.	16g/JJ	.	.	.	.	.	.	.	.	.	.	.
=100	=100	=100	=100	=100	=100	=100	=100	=100	=100	=100	=100	=100	=100	=100
*tremolo	*	*	*	*	*	*	*	*	*	*	*	*	*	*
8D\L	4	.	16g/LL	.	4d/	.	4d\	fi-	4.gg\	mor-	2ryy	2dd\	4b\	2ryy
.	.	.	16g/	.	.	.	.	.	.	.	.	.	.	.
8D\	3	.	16g/	.	.	.	.	.	.	.	.	.	.	.
.	.	.	16g/JJ	.	.	.	.	.	.	.	.	.	.	.
8D\	.	.	16f#X/LL	.	4aT/	.	4D/	.	.	.	.	.	4a\	.
.	.	.	16f#X/	.	.	.	.	.	.	.	.	.	.	.
8D\J	.	.	16f#X/	.	.	.	.	.	8ff#X\	-tu-	.	.	.	.
.	.	.	16f#X/JJ	.	.	.	.	.	.	.	.	.	.	.
*Xtremolo	*	*	*Xtremolo	*	*	*	*	*	*	*	*	*	*	*
!	!	!	!	!	!LO:LB:g=original	!	!	!	!	!	!	!	!	!
=101	=101	=101	=101	=101	=101	=101	=101	=101	=101	=101	=101	=101	=101	=101
4GG/	.	.	8g/	.	8g/	.	4G\	-nis	4gg\	-os	2ryy	4dd\	8b\L	2ryy
!	!	!	!	!	!	!LO:DY:b:t=p.	!	!	!	!	!	!	!	!
.	.	.	8b\L	.	8dd\L	p	.	.	.	.	.	.	8b\	.
4r	.	.	8cc\	.	8ee\	.	4r	.	4r	.	.	4r	8cc\	.
.	.	.	8b\J	.	8dd\J	.	.	.	.	.	.	.	8b\J	.
!LO:LB:g=original	!	!	!	!	!	!	!	!	!	!	!	!	!	!
=102	=102	=102	=102	=102	=102	=102	=102	=102	=102	=102	=102	=102	=102	=102
!	!	!	!	!	!	!	!LO:N:vis=00	!LO:N:vis=00	!	!	!	!	!	!
4r	.	.	8a/	.	8cc\	.	0r	.	0r	.	2ryy	4r	2a/	2ryy
.	.	.	4f#X/	.	4a/	.	.	.	.	.	.	.	.	.
8r	.	.	.	.	.	.	.	.	.	.	.	8r	.	.
8D\	7	.	8cc 8d/	.	8ff#X 8a 8d/	.	.	.	.	.	.	8dd\	.	.
!	!	!	!	!	!	!	!	!	!	!	!	!LO:LB:g=original	!	!
=103	=103	=103	=103	=103	=103	=103	=103	=103	=103	=103	=103	=103	=103	=103
4GG/	.	.	8b\L	.	8gg 8b 8d/	.	.	.	.	.	2ryy	4dd\	4b\	2ryy
.	.	.	8b\	.	8dd\L	.	.	.	.	.	.	.	.	.
4r	.	.	8cc\	.	8ee\	.	.	.	.	.	.	4r	4r	.
.	.	.	8b\J	.	8dd\J	.	.	.	.	.	.	.	.	.
=104	=104	=104	=104	=104	=104	=104	=104	=104	=104	=104	=104	=104	=104	=104
4r	.	.	8a/	.	8cc\	.	.	.	.	.	2ryy	4r	4r	2ryy
.	.	.	4f#X/	.	4a/	.	.	.	.	.	.	.	.	.
8r	.	.	.	.	.	.	.	.	.	.	.	8r	8r	.
8D\	7 #	.	8a 8d/	.	8ff#X 8a 8d/	.	.	.	.	.	.	8dd\	8a/	.
=105	=105	=105	=105	=105	=105	=105	=105	=105	=105	=105	=105	=105	=105	=105
4GG/	.	.	8b 8d/	.	8gg 8b 8d/	.	.	.	.	.	2ryy	4dd\	8b\L	2ryy
.	.	.	8b\L	.	8dd\L	.	.	.	.	.	.	.	8b\	.
4r	.	.	8cc\	.	8ee\	.	.	.	.	.	.	4r	8cc\	.
.	.	.	8b\J	.	8dd\J	.	.	.	.	.	.	.	8b\J	.
=106	=106	=106	=106	=106	=106	=106	=106	=106	=106	=106	=106	=106	=106	=106
4r	.	.	8ee\L	.	8gg\L	.	2r	.	2r	.	2ryy	2gg\	8b\L	2ryy
.	.	.	8dd\	.	8ffn\	.	.	.	.	.	.	.	8dd\	.
8r	.	.	8cc\	.	8ee\	.	.	.	.	.	.	.	8cc\	.
8GG/	7	.	8b\J	.	8dd\J	.	.	.	.	.	.	.	8b\J	.
!LO:TX:a:t=P:w źródle następne 4 takty skreślone; pomyłka skryptora:problem	!	!	!	!	!	!	!	!	!	!	!	!	!	!
!	!	!	!	!	!	!	!	!	!	!	!	!	!LO:LB:g=original	!
=107	=107	=107	=107	=107	=107	=107	=107	=107	=107	=107	=107	=107	=107	=107
!LO:TX:a:i:t=Tutto	!	!	!	!	!	!	!	!	!	!	!	!	!	!
8C/L	.	.	4cc\	.	4cc\	.	8r	.	4cc\	et	2ryy	4cc\	4cc\	2ryy
8C/	.	.	.	.	.	.	8c\	Con-	.	.	.	.	.	.
8BB/	.	.	4dd\	.	4dd\	.	8B\	-fi-	4dd\	in	.	4dd\	4g\	.
8GG/J	.	.	.	.	.	.	8G\	-te-	.	.	.	.	.	.
!	!	!	!LO:LB:g=original	!	!	!	!	!	!LO:PB:g=original	!	!	!	!	!
=108	=108	=108	=108	=108	=108	=108	=108	=108	=108	=108	=108	=108	=108	=108
4C/	.	.	8r	.	8r	.	4c\	-or	8ee\	ſpi-	2ryy	4ee\	4g\	2ryy
.	.	.	8ee\	.	8ee\	.	.	.	4ff\	-ri-	.	.	.	.
.	.	.	8qqgg/	.	8qqgg/	.	.	.	.	.	.	.	.	.
8r	.	.	8ff\L	.	8ff\L	.	8r	.	.	.	.	8r	8dd\L	.
!	!	!	!	!	!	!	!	!	!	!	!	!LO:SIC:s=8ee:v	!	!
8GG/	.	.	16ee\L	.	16ee\L	.	8G\	u-	16ee\LL	-tus	.	8dd\	8g\J	.
.	.	.	16dd\JJ	.	16dd\JJ	.	.	.	16dd\JJ	.	.	.	.	.
!LO:LB:g=original	!	!	!	!	!	!	!	!	!	!	!	!	!	!
=109	=109	=109	=109	=109	=109	=109	=109	=109	=109	=109	=109	=109	=109	=109
8C/L	.	.	4cc\	.	4cc\	.	8c\	-num	4cc\	ſan-	2ryy	4cc\	4e/	2ryy
8C/	.	.	.	.	.	.	8c\	Bap-	.	.	.	.	.	.
8BB/	6	.	4dd\	.	4dd\	.	8B\L	-tis-	4dd\	-ctus	.	4dd\	4g/	.
8GG/J	7	.	.	.	.	.	8G\J	.	.	.	.	.	.	.
=110	=110	=110	=110	=110	=110	=110	=110	=110	=110	=110	=110	=110	=110	=110
4C/	.	.	8r	.	8r	.	4c\	-ma	8ee\	Do-	2ryy	4ee\	4g/	2ryy
.	.	.	8ee\	.	8ee\	.	.	.	4ff\	-mi-	.	.	.	.
.	.	.	8qqgg/	.	8qqgg/	.	.	.	.	.	.	.	.	.
8r	.	.	8ff\L	.	8ff\L	.	8r	.	.	.	.	8r	8dd\L	.
!	!	!	!	!	!	!	!	!	!	!	!	!LO:SIC:s=8ee:v	!	!
8GG/	.	.	16ee\L	.	16ee\L	.	8G\	in	16ee\LL	-nus	.	8dd\	8g\J	.
.	.	.	16dd\JJ	.	16dd\JJ	.	.	.	16dd\JJ	.	.	.	.	.
!	!	!	!	!	!	!	!LO:LB:g=original	!	!	!	!	!	!	!
=111	=111	=111	=111	=111	=111	=111	=111	=111	=111	=111	=111	=111	=111	=111
*tremolo	*	*	*	*	*	*	*	*	*	*	*	*	*	*
8C/L	5 3	.	4cc\	.	4cc\	.	4C/	re-	4ee\	qui	2ryy	4cc\	2ee\	2ryy
8C/	.	.	.	.	.	.	.	.	.	.	.	.	.	.
8C/	.	.	8ee\L	.	8ee\L	.	8C/	-mis-	4ee\	ex	.	4r	.	.
8C/J	.	.	8gg\J	.	8gg\J	.	8C/	-si-	.	.	.	.	.	.
!	!	!	!	!	!LO:LB:g=original	!	!	!	!	!	!	!	!	!
=112	=112	=112	=112	=112	=112	=112	=112	=112	=112	=112	=112	=112	=112	=112
8C/L	6 4	.	4cc\	.	4cc\	.	4C/	-on-	8ff\	Pa-	2ryy	4cc\	2ff\	2ryy
8C/	.	.	.	.	.	.	.	.	8ff\	-tre	.	.	.	.
8C/	.	.	8ff\L	.	8ff\L	.	4C/	-em	8ff\	fi-	.	4r	.	.
8C/J	.	.	8aa\J	.	8aa\J	.	.	.	8ff\	-li-	.	.	.	.
=113	=113	=113	=113	=113	=113	=113	=113	=113	=113	=113	=113	=113	=113	=113
8C/L	5 3	.	4cc\	.	4cc\	.	4C/	pec-	4ee\	-o-	2ryy	4cc\	2ee\	2ryy
8C/	.	.	.	.	.	.	.	.	.	.	.	.	.	.
8C/	.	.	8ee\L	.	8ee\L	.	4C/	-ca-	8ee\	-que	.	4r	.	.
8C/J	.	.	8gg\J	.	8gg\J	.	.	.	8ee\	pro-	.	.	.	.
*Xtremolo	*	*	*	*	*	*	*	*	*	*	*	*	*	*
=114	=114	=114	=114	=114	=114	=114	=114	=114	=114	=114	=114	=114	=114	=114
8C/L	4 2	.	16gg\LL	.	16gg\LL	.	4C/	-to-	2dd\	-ce-	2ryy	4r	2dd\	2ryy
.	.	.	16ff\	.	16ff\	.	.	.	.	.	.	.	.	.
8C/	.	.	16ddd\	.	16ddd\	.	.	.	.	.	.	.	.	.
.	.	.	16ccc\JJ	.	16ccc\JJ	.	.	.	.	.	.	.	.	.
8BB/	6 5	.	16bb\LL	.	16bb\LL	.	4C/	.	.	.	.	4dd\	.	.
.	.	.	16aa\	.	16aa\	.	.	.	.	.	.	.	.	.
8BB/J	.	.	16gg\	.	16gg\	.	.	.	.	.	.	.	.	.
.	.	.	16ff\JJ	.	16ff\JJ	.	.	.	.	.	.	.	.	.
!	!	!	!	!	!	!	!	!	!	!	!	!LO:LB:g=original	!	!
=115	=115	=115	=115	=115	=115	=115	=115	=115	=115	=115	=115	=115	=115	=115
*tremolo	*	*	*	*	*	*	*	*	*	*	*	*	*	*
8C/L	.	.	4ee\	.	4ee\	.	4C/	-rum	4ee\	-dit	2ryy	4ee\	4cc\	2ryy
8C/	.	.	.	.	.	.	.	.	.	.	.	.	.	.
8C/	.	.	16gg\LL	.	16gg\LL	.	4c\	u-	8ee\	qui	.	4r	4ee\	.
.	.	.	16ee\	.	16ee\	.	.	.	.	.	.	.	.	.
8C/J	.	.	16ee\	.	16ee\	.	.	.	8ee\	cum	.	.	.	.
.	.	.	16cc\JJ	.	16cc\JJ	.	.	.	.	.	.	.	.	.
=116	=116	=116	=116	=116	=116	=116	=116	=116	=116	=116	=116	=116	=116	=116
8AA/L	6	.	4ff 4a\	.	4ff\	.	4A\	-num	4ff\	Pa-	2ryy	4cc\	4cc\	2ryy
8AA/	.	.	.	.	.	.	.	.	.	.	.	.	.	.
8AA/	.	.	16aa\LL	.	16aa\LL	.	4A\	Bap-	8ff\	-tre	.	4r	4ff\	.
.	.	.	16ff\	.	16ff\	.	.	.	.	.	.	.	.	.
8AA/J	.	.	16ff\	.	16ff\	.	.	.	8ff\	et	.	.	.	.
.	.	.	16cc\JJ	.	16cc\JJ	.	.	.	.	.	.	.	.	.
!	!	!	!LO:LB:g=original	!	!	!	!	!	!LO:LB:g=original	!	!	!	!	!
=117	=117	=117	=117	=117	=117	=117	=117	=117	=117	=117	=117	=117	=117	=117
8E\L	6	.	4gg 4cc\	.	4gg 4cc\	.	2E\	-tis-	4gg\	Fi-	2ryy	4cc\	4cc\	2ryy
8E\	5 3	.	.	.	.	.	.	.	.	.	.	.	.	.
8E\	.	.	16bb-X\LL	.	16bb-X\LL	.	.	.	4gg\	-li-	.	4r	4gg\	.
.	.	.	16gg\	.	16gg\	.	.	.	.	.	.	.	.	.
8E\J	.	.	16gg\	.	16gg\	.	.	.	.	.	.	.	.	.
.	.	.	16ee\JJ	.	16cc\JJ	.	.	.	.	.	.	.	.	.
*Xtremolo	*	*	*	*	*	*	*	*	*	*	*	*	*	*
=118	=118	=118	=118	=118	=118	=118	=118	=118	=118	=118	=118	=118	=118	=118
8F\	.	.	8ff\	.	8aa\L	.	4F\	-ma	8ff\	-o	2ryy	4cc\	4ff\	2ryy
8r	.	.	8aa\L	.	8ccc\	.	.	.	8cc\L	et	.	.	.	.
4r	.	.	8bb-X\	.	8ddd\	.	4r	.	8dd\J	.	.	4r	4r	.
.	.	.	8aa\J	.	8ccc\J	.	.	.	8cc\	ex-	.	.	.	.
=119	=119	=119	=119	=119	=119	=119	=119	=119	=119	=119	=119	=119	=119	=119
4r	.	.	8gg\	.	8bb-X\	.	4r	.	8b-X\	-pec-	2ryy	4r	4r	2ryy
.	.	.	4ee\	.	4gg\	.	.	.	4g\	-to	.	.	.	.
8r	.	.	.	.	.	.	8r	.	.	.	.	8r	8r	.
8C/	7	.	8ee 8b-X\	.	8gg 8cc\	.	8c\	Cre-	8r	.	.	8cc\	8ee\	.
=120	=120	=120	=120	=120	=120	=120	=120	=120	=120	=120	=120	=120	=120	=120
4F\	.	.	8ff 8a\	.	8aa\L	.	4A\	-do	8r	.	2ryy	4cc\	4ff\	2ryy
.	.	.	8aa\L	.	8ccc\	.	.	.	8cc\L	et	.	.	.	.
4r	.	.	8bb-X\	.	8ddd\	.	4r	.	8dd\J	.	.	4r	4r	.
.	.	.	8aa\J	.	8ccc\J	.	.	.	8cc\	ex-	.	.	.	.
=121	=121	=121	=121	=121	=121	=121	=121	=121	=121	=121	=121	=121	=121	=121
4r	.	.	8gg\	.	8bb-X\	.	4r	.	4b-X\	-pec-	2ryy	4r	4r	2ryy
.	.	.	4ee\	.	4gg\	.	.	.	.	.	.	.	.	.
8r	.	.	.	.	.	.	8r	.	8g\	-to	.	8r	8r	.
!	!	!	!LO:TX:a:t=P:w źródle 2 następne takty skreślone; pomyłka skryptora:problem	!	!	!	!	!	!	!	!	!	!	!
8C/	7	.	8ee 8b-X\	.	8gg 8cc\	.	8c\	Cre-	8r	.	.	8cc\	8ee\	.
!LO:LB:g=original	!	!	!	!	!	!	!	!	!	!	!	!	!	!
=122	=122	=122	=122	=122	=122	=122	=122	=122	=122	=122	=122	=122	=122	=122
!	!	!	!	!LO:DY:b	!	!	!	!	!	!	!	!	!	!
4F\	.	.	8ff 8a\	f	8aa\L	.	4A\	-do	8r	.	2ryy	4cc\	8ff\L	2ryy
.	.	.	8ff\L	.	8aa\	.	.	.	8ff\L	re-	.	.	8ff\	.
4r	.	.	8gg\	.	8bb-X\	.	4r	.	8gg\J	.	.	4r	8gg\	.
.	.	.	8ff\J	.	8aa\J	.	.	.	8ff\	-sur-	.	.	8ff\J	.
!	!	!	!	!	!LO:LB:g=original	!	!LO:LB:g=original	!	!	!	!	!	!	!
=123	=123	=123	=123	=123	=123	=123	=123	=123	=123	=123	=123	=123	=123	=123
!	!	!	!	!	!	!	!	!	!	!	!	!LO:N:vis=0	!	!
4r	.	.	8ee\	.	8gg\	.	4r	.	4ee\	-re-	2ryy	1r	4ee\	2ryy
.	.	.	4cc#X\	.	4ee\	.	.	.	.	.	.	.	.	.
8r	.	.	.	.	.	.	8r	.	4cc#X\	-cti-	.	.	4cc#X\	.
8AA/	7	.	8cc# 8e 8A/	.	8ee 8a\	.	8A\	Cre-	.	.	.	.	.	.
!	!	!	!	!	!	!	!	!	!	!	!	!	!LO:LB:g=original	!
=124	=124	=124	=124	=124	=124	=124	=124	=124	=124	=124	=124	=124	=124	=124
!	!	!	!	!	!	!	!LO:SIC:s=4F:v	!	!	!	!	!	!	!
4D\	.	.	8dd 8f 8A/	.	8ff\L	.	4E\	-do	8dd\	-o-	2ryy	.	8dd\L	2ryy
!	!	!	!	!LO:DY:b:t=p.	!	!	!	!	!	!	!	!	!	!
.	.	.	8ff\L	p	8aa\	.	.	.	8ff\	-nem	.	.	8ff\	.
4r	.	.	8ff\	.	8aa\	.	8D\	mor-	8ff\	mor-	.	.	8ff\	.
.	.	.	8ff\J	.	8aa\J	.	8D\	-tu-	8ff\	-tu-	.	.	8ff\J	.
!	!	!	!LO:LB:g=original	!	!	!	!	!	!LO:LB:g=original	!	!	!	!	!
=125	=125	=125	=125	=125	=125	=125	=125	=125	=125	=125	=125	=125	=125	=125
!LO:SIC:s=4C:v	!	!	!	!	!	!	!	!	!	!	!	!	!	!
4BBn/	6 5	.	8ff\	.	8aa\	.	4C/	-o-	8ff\	-o-	2ryy	2r	8ff\	2ryy
.	.	.	4dd\	.	4ff\	.	.	.	4dd\	.	.	.	4dd\	.
4C/	.	.	.	.	.	.	4C/	-rum	.	.	.	.	.	.
.	.	.	8cc\	.	8ee\	.	.	.	8cc\	.	.	.	8cc\	.
=126	=126	=126	=126	=126	=126	=126	=126	=126	=126	=126	=126	=126	=126	=126
!LO:TX:a:t=P:mixed beam:problem	!	!	!	!	!	!	!	!	!	!	!	!	!	!
8GG/L	.	.	8b/L	.	8dd\L	.	4GG/	.	4b\	-rum	2ryy	8r	4b\	2ryy
8G\	.	.	8g/	.	8gg\	.	.	.	.	.	.	8gg\L	.	.
8G\	.	.	8g/	.	8gg\	.	8r	.	8r	.	.	8gg\	4r	.
8G\J	.	.	8g/J	.	8gg\J	.	8G\	et	8gg\	et	.	8gg\J	.	.
=127	=127	=127	=127	=127	=127	=127	=127	=127	=127	=127	=127	=127	=127	=127
8E\L	.	.	8e/L	.	8ee\L	.	8E\L	vi-	8ee\L	vi-	2ryy	8ee\L	2ee\	2ryy
8G\	.	.	8g/	.	8gg\	.	8G\	.	8gg\	.	.	8gg\	.	.
8E\	.	.	8e/	.	8ee\	.	8E\	.	8ee\	.	.	8ee\	.	.
8C\J	.	.	8c/J	.	8cc\J	.	8C\J	.	8cc\J	.	.	8cc\J	.	.
!	!	!	!	!	!	!	!	!	!	!	!	!LO:LB:g=original	!	!
=128	=128	=128	=128	=128	=128	=128	=128	=128	=128	=128	=128	=128	=128	=128
!LO:TX:a:t=P:mixed beam:problem	!	!	!	!	!LO:TX:a:t=P:mixed beam:problem	!	!	!	!	!	!	!LO:TX:a:t=P:mixed beam:problem	!	!
8GG/L	.	.	8G/L	.	8g/L	.	8GG/	-tam	8b\	-tam	2ryy	8g/L	4dd\	2ryy
8G\	.	.	8g/	.	8gg\	.	8G\	ven-	8gg\	ven-	.	8gg\	.	.
8G\	.	.	8g/	.	8gg\	.	8G\	-tu-	8gg\	-tu-	.	8gg\	4r	.
8G\J	.	.	8g/J	.	8gg\J	.	8G\	-ri	8gg\	-ri	.	8gg\J	.	.
=129	=129	=129	=129	=129	=129	=129	=129	=129	=129	=129	=129	=129	=129	=129
!	!	!	!	!	!	!	!	!	!LO:SIC:s=sae-:v	!	!	!	!	!
8E\L	.	.	8e/L	.	8ee\L	.	8E\L	ſe-	8ee\L	ſe-	2ryy	8ee\L	2cc	2ryy
8G\	.	.	8g/	.	8gg\	.	8G\J	.	8gg\	.	.	8gg\	.	.
!	!	!	!	!	!	!	!LO:SIC:s=sae-:v	!	!	!	!	!	!	!
8E\	.	.	8e/	.	8ee\	.	8E\L	-cu-	8ee\	.	.	8ee\	.	.
8C\J	.	.	8c/J	.	8cc\J	.	8C\J	.	8cc\J	-cu-	.	8cc\J	.	.
=130	=130	=130	=130||	=130||	=130||	=130||	=130||	=130||	=130||	=130||	=130||	=130||	=130||	=130||
*M3/4	*	*	*M3/4	*	*M3/4	*	*M3/4	*	*M3/4	*	*M3/4	*M3/4	*M3/4	*M3/4
!LO:TX:a:i:t=Adagio	!	!	!LO:TX:a:i:t=ada&colon;	!	!LO:TX:a:i:t=ada:	!	!LO:TX:a:i:t=ada&colon;	!	!LO:TX:a:i:t=ada&colon;	!	!	!LO:TX:a:i:t=ada&colon;	!	!LO:TX:a:i:t=ada&colon;
!	!	!	!	!	!	!	!	!	!	!	!	!	!	!LO:TX:b:i:t=amen
!	!	!	!	!LO:DY:b:t=p.:rj	!	!	!	!	!	!	!	!	!	!
4GG/	.	.	8g/L	p	4g/	.	4GG/	-li	4g\	-li	2.ryy	4g/	4b\	4b\
.	.	.	8g/J	.	.	.	.	.	.	.	.	.	.	.
*	*	*	*tremolo	*	*	*	*	*	*	*	*	*	*	*
4r	.	.	8g/L	.	4r	.	4r	.	4r	.	.	4r	4r	4r
.	.	.	8g/	.	.	.	.	.	.	.	.	.	.	.
4r	.	.	8g/	.	4r	.	4r	.	4r	.	.	4r	4r	4r
.	.	.	8g/J	.	.	.	.	.	.	.	.	.	.	.
=131	=131	=131	=131	=131	=131	=131	=131	=131	=131	=131	=131	=131	=131	=131
*tremolo	*	*	*	*	*tremolo	*	*	*	*	*	*	*	*	*
!	!	!	!	!	!	!	!	!	!	!	!	!	!LO:TX:a:t=3.	!LO:TX:a:t=3.
!	!	!	!	!	!	!	!	!	!	!	!	!	!LO:N:vis=0	!LO:N:vis=0
8F\L	4 2	.	8g/L	.	8b\L	.	2.F\	a-	2dd\	A-	2.ryy	2.dd\	1.r	1.r
8F\	.	.	8g/	.	8b\	.	.	.	.	.	.	.	.	.
8F\	.	.	8g/	.	8b\	.	.	.	.	.	.	.	.	.
8F\	.	.	8g/	.	8b\	.	.	.	.	.	.	.	.	.
8F\	.	.	8g/	.	8b\	.	.	.	4dd\	-men	.	.	.	.
8F\J	.	.	8g/J	.	8b\J	.	.	.	.	.	.	.	.	.
*Xtremolo	*	*	*	*	*Xtremolo	*	*	*	*	*	*	*	*	*
!	!	!	!	!	!	!	!LO:PB:g=original	!	!	!	!	!	!	!
=132	=132	=132	=132	=132	=132	=132	=132	=132	=132	=132	=132	=132	=132	=132
*	*	*	*	*	*	*	*	*	*	*ij	*	*	*	*
4E\	6	.	8g/L	.	4cc\	.	4G\	-men	2cc\	A-	2.ryy	4ee\	.	.
.	.	.	8g/	.	.	.	.	.	.	.	.	.	.	.
4r	.	.	8g/	.	2b-X\	.	4r	.	.	.	.	4r	.	.
.	.	.	8g/	.	.	.	.	.	.	.	.	.	.	.
4C/	7	.	8g/	.	.	.	4E\	A-	4cc\	-men	.	4cc\	.	.
.	.	.	8g/J	.	.	.	.	.	.	.	.	.	.	.
*	*	*	*	*	*	*	*	*	*	*Xij	*	*	*	*
*	*	*	*Xtremolo	*	*	*	*	*	*	*	*	*	*	*
!LO:LB:g=original	!	!	!	!	!	!	!	!	!LO:LB:g=original	!	!	!	!	!
=133	=133	=133	=133	=133	=133	=133	=133	=133	=133	=133	=133	=133	=133	=133
4F\	.	.	8c/L	.	4a/	.	4F\	-men	4cc\	A-	2.ryy	4cc\	2.r	2.r
.	.	.	8c/J	.	.	.	.	.	.	.	.	.	.	.
*	*	*	*tremolo	*	*	*	*	*	*	*	*	*	*	*
4r	.	.	8a/L	.	2cc#X\	.	4r	.	2cc#X\	.	.	4r	.	.
.	.	.	8a/	.	.	.	.	.	.	.	.	.	.	.
4E\	6\	.	8a/	.	.	.	4E\	A-	.	.	.	4r	.	.
.	.	.	8a/J	.	.	.	.	.	.	.	.	.	.	.
*	*	*	*Xtremolo	*	*	*	*	*	*	*	*	*	*	*
=134	=134	=134	=134	=134	=134	=134	=134	=134	=134	=134	=134	=134	=134	=134
4D\	.	.	8a/L	.	4dd\	.	4D\	-men	4dd\	-men	2.ryy	4r	4r	4r
.	.	.	8a/J	.	.	.	.	.	.	.	.	.	.	.
*	*	*	*tremolo	*	*	*	*	*	*	*	*	*	*	*
4r	.	.	8g/L	.	2ffn\	.	4r	.	2ff\	a-	.	4r	2dd\	2ff\
.	.	.	8g/	.	.	.	.	.	.	.	.	.	.	.
4BB/	6 5	.	8g/	.	.	.	4BB/	A-	.	.	.	4dd\	.	.
.	.	.	8g/J	.	.	.	.	.	.	.	.	.	.	.
*	*	*	*Xtremolo	*	*	*	*	*	*	*	*	*	*	*
!	!	!	!LO:LB:g=original	!	!LO:LB:g=original	!	!	!	!	!	!	!	!	!
=135	=135	=135	=135	=135	=135	=135	=135	=135	=135	=135	=135	=135	=135	=135
!LO:TX:a:t=P:mixed beam:problem	!	!	!	!	!	!	!	!	!	!	!	!	!	!
8C\L	.	.	16g/LL	.	16ee\LL	.	8C\L	.	16ee\LL	.	2.ryy	8ee\L	8cc\L	8ee\L
!	!	!	!	!	!LO:SIC:s=16ff:v	!	!	!	!	!	!	!	!	!
.	.	.	16a/	.	16gg\	.	.	.	16ff\	.	.	.	.	.
!	!	!	!	!	!LO:SIC:s=16ee:v	!	!	!	!	!	!	!	!	!
8F\	6	.	16g/	.	16ff\	.	8F\J	.	16ee\	.	.	8ff\J	8g\J	16ff\L
.	.	.	16f/JJ	.	16dd\JJ	.	.	.	16dd\JJ	.	.	.	.	16dd\JJ
!	!	!	!LO:SIC:s=4e:v	!	!	!	!	!	!	!	!	!	!	!
8G\	6 4	.	4e-X/	.	4cc\	.	4G\	.	4cc\	.	.	4ee\	4e/	4cc\
8G\	.	.	.	.	.	.	.	.	.	.	.	.	.	.
8GG/	5 3	.	4d/	.	4b\	.	4GG/	.	4b\	.	.	4dd\	4d/	4b\
8GG/J	.	.	.	.	.	.	.	.	.	.	.	.	.	.
=136	=136	=136	=136	=136	=136	=136	=136	=136	=136	=136	=136	=136	=136	=136
!	!	!	!	!	!LO:TX:a:t=P:znak początku repetycji:problem	!	!	!	!	!	!	!	!	!
4C/	.	.	8e/L	.	8cc\L	.	4C/	-men	4cc\	-men	2.ryy	4cc\	4e/	4cc\
.	.	.	8e/	.	8gg\	.	.	.	.	.	.	.	.	.
4r	.	.	8d/	.	8ff\	.	4r	.	4r	.	.	4r	4r	4r
.	.	.	8c/	.	8ee\	.	.	.	.	.	.	.	.	.
4r	.	.	8B/	.	8dd\	.	4r	.	4r	.	.	4r	4r	4r
.	.	.	8A/J	.	8cc\J	.	.	.	.	.	.	.	.	.
=137	=137	=137	=137	=137	=137	=137	=137	=137	=137	=137	=137	=137	=137	=137
!	!	!	!	!	!	!	!LO:N:vis=0	!	!	!	!	!LO:TX:a:t=1.	!	!
4r	.	.	4G/	.	16b\LL	.	1.r	.	4r	.	2.ryy	2.r	4r	4r
.	.	.	.	.	16cc\	.	.	.	.	.	.	.	.	.
.	.	.	.	.	16b\	.	.	.	.	.	.	.	.	.
.	.	.	.	.	16a\JJ	.	.	.	.	.	.	.	.	.
8r	.	.	8r	.	8g/L	.	.	.	8r	.	.	.	8r	8r
!	!	!	!	!	!	!	!	!	!	!	!	!	!LO:SIC:s=8cc:v	!
8C/L	3 1	.	8c/L	.	8e/	.	.	.	8ee\L	A-	.	.	8b\L	8ee\L
!	!	!	!	!	!	!	!	!	!	!	!	!	!LO:SIC:s=8dd:v	!
8C/	4 2	.	8d/	.	8f/	.	.	.	8ff\	.	.	.	8cc\	8ff\
!	!	!	!	!	!	!	!	!	!	!	!	!	!LO:SIC:s=8ee:v	!
8C/J	5 3	.	8e/J	.	8g/J	.	.	.	8gg\J	.	.	.	8dd\J	8gg\J
!	!	!	!	!	!	!	!	!	!	!	!	!LO:LB:g=original	!	!LO:LB:g=original
=138	=138	=138	=138	=138	=138	=138	=138	=138	=138	=138	=138	=138	=138	=138
*tremolo	*	*	*	*	*	*	*	*	*	*	*	*	*	*
8C/L	4 2	.	16e/LL	.	16g/LL	.	.	.	16gg\LL	.	2.ryy	2.cc\	16ee\LL	16gg\LL
.	.	.	16d/JJ	.	16f/JJ	.	.	.	16ff\JJ	.	.	.	16dd\JJ	16ff\JJ
8C/	.	.	4d/	.	4f/	.	.	.	4ff\	.	.	.	4dd\	4ff\
8C/	7	.	.	.	.	.	.	.	.	.	.	.	.	.
8C/	.	.	16e/LL	.	16g/LL	.	.	.	16gg\LL	.	.	.	16ee\LL	16gg\LL
.	.	.	16f/JJ	.	16a/JJ	.	.	.	16aa\JJ	.	.	.	16ff\JJ	16aa\JJ
!	!	!	!	!	!	!	!	!	!	!	!	!	!LO:LB:g=original	!
8C/	.	.	16e/LL	.	16g/LL	.	.	.	16gg\LL	.	.	.	16ee\LL	16gg\LL
.	.	.	16d/	.	16f/	.	.	.	16ff\	.	.	.	16dd\	16ff\
8C/J	.	.	16c/	.	16e/	.	.	.	16ee\	.	.	.	16cc\	16ee\
.	.	.	16d/JJ	.	16f/JJ	.	.	.	16ff\JJ	.	.	.	16dd\JJ	16ff\JJ
!	!	!	!	!	!LO:TX:a:t=P:znak końca repetycji:problem	!	!	!	!	!	!	!	!	!
*Xtremolo	*	*	*	*	*	*	*	*	*	*	*	*	*	*
=139	=139	=139	=139	=139	=139	=139	=139	=139	=139	=139	=139	=139	=139	=139
*	*	*	*	*	*rep	*	*	*	*	*	*	*	*	*
!	!	!	!	!	!LO:TX:a:t=P:powtórzenie taktów oznaczone znakami repetycji:problem	!	!	!	!	!	!	!	!	!
4C/	0	.	8c/L	.	8cc\L	.	2.r	.	4ee\	-men	2.ryy	4cc\	4cc\	4ee\
.	.	.	8e/	.	8gg\	.	.	.	.	.	.	.	.	.
4r	.	.	8d/	.	8ff\	.	.	.	4r	.	.	4r	4r	4r
.	.	.	8c/	.	8ee\	.	.	.	.	.	.	.	.	.
4r	.	.	8B/	.	8dd\	.	.	.	4r	.	.	4r	4r	4r
.	.	.	8A/J	.	8cc\J	.	.	.	.	.	.	.	.	.
!	!	!	!	!	!	!	!	!	!LO:LB:g=original	!	!	!	!	!
=140	=140	=140	=140	=140	=140	=140	=140	=140	=140	=140	=140	=140	=140	=140
!	!	!	!	!	!	!	!	!	!	!	!	!LO:TX:a:t=1.	!	!
4r	.	.	4G/	.	16b\LL	.	4r	.	4r	.	2.ryy	2.r	4r	4r
.	.	.	.	.	16cc\	.	.	.	.	.	.	.	.	.
.	.	.	.	.	16b\	.	.	.	.	.	.	.	.	.
.	.	.	.	.	16a\JJ	.	.	.	.	.	.	.	.	.
8r	.	.	8r	.	8g/L	.	8r	.	8r	.	.	.	8r	8r
8C/L	3 1	.	8c/L	.	8e/	.	8E\L	A-	8cc\L	A-	.	.	8e/L	8cc\L
8C/	4 2	.	8d/	.	8f/	.	8F\J	.	8dd\J	.	.	.	8f/	8dd\
8C/J	5 3	.	8e/J	.	8g/J	.	8G\	.	8ee\	.	.	.	8g/J	8ee\J
=141	=141	=141	=141	=141	=141	=141	=141	=141	=141	=141	=141	=141	=141	=141
*tremolo	*	*	*	*	*	*	*	*	*	*	*	*	*	*
8C/L	4 2	.	16e/LL	.	16g/LL	.	16G\LL	.	16ee\LL	.	2.ryy	2.cc\	16g/LL	16ee\LL
.	.	.	16d/JJ	.	16f/JJ	.	16F\JJ	.	16dd\JJ	.	.	.	16f/JJ	16dd\JJ
8C/	.	.	4d/	.	4f/	.	4F\	.	4dd\	.	.	.	4f/	4dd\
8C/	.	.	.	.	.	.	.	.	.	.	.	.	.	.
8C/	.	.	16e/LL	.	16g/LL	.	16G\LL	.	16ee\LL	.	.	.	16g/LL	16ee\LL
.	.	.	16f/JJ	.	16a/JJ	.	16A\JJ	.	16ff\JJ	.	.	.	16a/JJ	16ff\JJ
!	!	!	!LO:LB:g=original	!	!	!	!LO:LB:g=original	!	!	!	!	!	!	!
8C/	.	.	16e/LL	.	16g/LL	.	16G\LL	.	16ee\LL	.	.	.	16g/LL	16ee\LL
.	.	.	16d/	.	16f/	.	16F\	.	16dd\	.	.	.	16f/	16dd\
8C/J	.	.	16c/	.	16e/	.	16E\	.	16cc\	.	.	.	16e/	16cc\
.	.	.	16d/JJ	.	16f/JJ	.	16F\JJ	.	16dd\JJ	.	.	.	16f/JJ	16dd\JJ
*	*	*	*	*	*Xrep	*	*	*	*	*	*	*	*	*
*Xtremolo	*	*	*	*	*	*	*	*	*	*	*	*	*	*
=142	=142	=142	=142	=142	=142	=142	=142	=142	=142	=142	=142	=142	=142	=142
8C/	0 3_	.	8r	.	8r	.	4E\	-men	4cc\	-men	2.ryy	8cc\	4e/	4cc\
!	!	!	!	!	!	!LO:DY:b:rj	!	!	!	!	!	!	!	!
8r	.	.	8G/	.	8c/	pp	.	.	.	.	.	8r	.	.
8C/	.	.	8r	.	8r	.	4r	.	4r	.	.	8cc\	4r	4r
8r	.	.	8G/	.	8c/	.	.	.	.	.	.	8r	.	.
!	!	!	!	!	!	!	!LO:SIC:s=4C:v	!	!	!	!	!	!	!
8C/	.	.	8r	.	8r	.	4BB/	A-	4ee\	A-	.	8cc\	4r	4r
!LO:SIC:s=8r:v	!	!	!	!	!	!	!	!	!	!	!	!	!	!
8ryy	.	.	8G/	.	8c/	.	.	.	.	.	.	8r	.	.
=143	=143	=143	=143	=143	=143	=143	=143	=143	=143	=143	=143	=143	=143	=143
!	!	!	!	!	!	!	!	!	!	!	!	!	!LO:TX:a:t=1.	!
4C/	X	.	4G/	.	4c/	.	2.C/	-men	4ee\	-men	2.ryy	4cc\	2.r	2.r
4r	.	.	4r	.	4r	.	.	.	4r	.	.	4r	.	.
4r	.	.	4r	.	4r	.	.	.	4r	.	.	4r	.	.
*2\left	*	*	*	*	*2\left	*	*2\left	*	*2\left	*	*	*2\left	*2\left	*2\left
==	==	==	==	==	==	==	==	==	==	==	==	==	==	==
*-	*-	*-	*-	*-	*-	*-	*-	*-	*-	*-	*-	*-	*-	*-
!!title: @{OTL};
!!!RDF**kern: > = above
!!!RDF**kern: < = below
!!!EED: Wojciech Jakubiak-Danek
!!!EST: 2020-10-08
!!!URL-scan: http://bc.bdsandomierz.pl/dlibra/publication/1529/edition/1497/content
!!!ONB-nifc: UWAGA: części Mszy: Kyrie, Gloria, Credo, Sanctus, Benedictus, Agnus Dei, Dona Uwaga: brak partii cornu 2.
!!!ENC: Andrzej Gręziak
!!!END: 2020-06-04
